!!!!SEGMENT: pl-wtm--r-1552--008_stefani-jozef--missa-no-13-agnus-dei.krn
!!!cenid: 18xx:1819
!!!COM: Stefani, Józef
!!!COM-rismid: pe30024097
!!!CDT: 1800/04/16-1876/03/19
!!!CNT: Polish
!!!OPR: Missa No 13
!!!OTL: Agnus Dei
!!!OMV: 008
!!!PDT:
!!!AGN: Sacred; Mass
!!!OMD: Adagio.
!!!SMS-siglum: PL-Wtm
!!!SMS-shelfmark: R 1552
!!!SMS-shelfwork: 001-008 M
!!!SMS-variant:
!!!SMS-altvar:
!!!NIFC-rismid: 1001115180
!!!URL-scan: http://repozytorium.nifc.pl/skany/pl-wtm-nut--r1552
!!!ONB-nifc: UWAGA: części Mszy: 1. Kyrie, 2. Gloria, 3. Graduale, 4. Credo, 5. Offertorium, 6. Sanctus, 7. Benedictus, 8. Agnus Dei
!!!system-decoration: {(<g1>,s3,s4)}{(s5,s6,s7,s8)}{(<s9,s10>)}
!!!AIN: 7 empty 1 tenor 1 viola 1 violn
!!!key:
**kern	**kern	**kern	**dynam	**kern	**dynam	**kern	**dynam	**kern	**dynam	**kern	**text	**text	**dynam	**kern	**text	**dynam	**kern	**text	**kern	**text	**text	**dynam
*	*	*	*	*	*	*	*	*	*	*	*	*	*	*	*	*	*	*	*group1	*group1	*group1	*group1
*part10	*part9	*part8	*part8	*part7	*part7	*part6	*part6	*part5	*part5	*part4	*part4	*part4	*part4	*part3	*part3	*part3	*part2	*part2	*part1	*part1	*part1	*part1
*staff10	*staff9	*staff8	*	*staff7	*	*staff6	*	*staff5	*	*staff4	*staff4	*staff4	*	*staff3	*staff3	*	*staff2	*staff2	*staff1	*staff1	*staff1	*
*Iempty	*Iempty	*Iempty	*	*Iviola	*	*Iempty	*	*Ivioln	*	*Iempty	*	*	*	*Itenor	*	*	*Iempty	*	*Iempty	*	*	*
*	*	*I"Baſsi	*	*I"Viole	*	*I"2o	*	*I"Violino 1o	*	*I"Baſsi	*	*	*	*I"Tenori	*	*	*	*	*	*	*	*
*""Organo.	*""Organo	*	*	*	*	*	*	*	*	*	*	*	*	*	*	*	*""Soprani	*""Soprani	*""Soprani	*""Soprani	*""Soprani	*""Soprani
*	*	*I'b	*	*I'vla	*	*I'vl 2	*	*I'vl 1	*	*I'B	*	*	*	*I'T	*	*	*	*	*	*	*	*
*''org	*''org	*	*	*	*	*	*	*	*	*	*	*	*	*	*	*	*''S	*''S	*''S	*''S	*''S	*''S
*clefF4	*clefG2	*clefF4	*	*clefC3	*	*clefG2	*	*clefG2	*	*clefF4	*	*	*	*clefC4	*	*	*clefG2	*	*clefG2	*	*	*
*k[f#c#g#]	*k[f#c#g#]	*k[f#c#g#]	*	*k[f#c#g#]	*	*k[f#c#g#]	*	*k[f#c#g#]	*	*k[f#c#g#]	*	*	*	*k[f#c#g#]	*	*	*k[f#c#g#]	*	*k[f#c#g#]	*	*	*
*D:	*D:	*D:	*	*D:	*	*D:	*	*D:	*	*D:	*	*	*	*D:	*	*	*D:	*	*D:	*	*	*
*M3/4	*M3/4	*M3/4	*	*M3/4	*	*M3/4	*	*M3/4	*	*M3/4	*	*	*	*M3/4	*	*	*M3/4	*	*M3/4	*	*	*
*>[A,A,B]	*>[A,A,B]	*>[A,A,B]	*	*>[A,A,B]	*	*>[A,A,B]	*	*>[A,A,B]	*	*>[A,A,B]	*	*	*	*>[A,A,B]	*	*	*>[A,A,B]	*	*>[A,A,B]	*	*	*
=1!|:	=1!|:	=1!|:	=1!|:	=1!|:	=1!|:	=1!|:	=1!|:	=1!|:	=1!|:	=1!|:	=1!|:	=1!|:	=1!|:	=1!|:	=1!|:	=1!|:	=1!|:	=1!|:	=1!|:	=1!|:	=1!|:	=1!|:
*>A	*>A	*>A	*	*>A	*	*>A	*	*>A	*	*>A	*	*	*	*>A	*	*	*>A	*	*>A	*	*	*
*	*^	*	*	*	*	*	*	*	*	*	*	*	*	*	*	*	*	*	*	*	*	*
*	*	*^	*	*	*	*	*	*	*	*	*	*	*	*	*	*	*	*	*	*	*	*	*
*	*	*2\right	*	*	*	*	*	*	*	*	*	*	*	*	*	*	*	*	*	*	*	*	*	*
!	!	!	!	!	!	!	!	!	!	!	!LO:DY:a:rj	!	!	!	!	!	!	!	!	!	!LO:TX:t=P:problem=nazwy instrumnetów wg skanu 27	!	!	!
4A\ 4AA\	2.a/	2c#\	2.A\	4A\	.	2A/	.	2c#/	.	2a/	f	2.r	.	.	.	2.r	.	.	2.r	.	2.r	.	.	.
4F#\ 4FF#\	.	.	.	4F#\	.	.	.	.	.	.	.	.	.	.	.	.	.	.	.	.	.	.	.	.
4Fn\ 4FFn\	.	4d#X\	.	4Fn\	.	(4A^/	.	(4d#X/	.	(<4a^>/	.	.	.	.	.	.	.	.	.	.	.	.	.	.
*	*v	*v	*v	*	*	*	*	*	*	*	*	*	*	*	*	*	*	*	*	*	*	*	*	*
=2	=2	=2	=2	=2	=2	=2	=2	=2	=2	=2	=2	=2	=2	=2	=2	=2	=2	=2	=2	=2	=2	=2
4E/ 4EE/	8g#/L 8e/ 8B/	4E\	.	4B/)	.	4e/)	.	8g#/L)	.	2.r	.	.	.	2.r	.	.	2.r	.	2.r	.	.	.
.	8e/	.	.	.	.	.	.	8e'/	.	.	.	.	.	.	.	.	.	.	.	.	.	.
4r	8f#/	4r	.	4r	.	4r	.	8f#'/	.	.	.	.	.	.	.	.	.	.	.	.	.	.
!	!	!	!	!	!	!	!	!	!	!	!	!	!	!	!	!	!	!	!LO:TX:b:i:t=dolce	!	!	!
.	8g#/	.	.	.	.	.	.	8g#'/	.	.	.	.	.	.	.	.	.	.	.	.	.	.
4r	8a/	4r	.	4r	.	4r	.	8a'/	.	.	.	.	.	.	.	.	.	.	.	.	.	.
.	8b/J	.	.	.	.	.	.	8b'/J	.	.	.	.	.	.	.	.	.	.	.	.	.	.
=3	=3	=3	=3	=3	=3	=3	=3	=3	=3	=3	=3	=3	=3	=3	=3	=3	=3	=3	=3	=3	=3	=3
*	*^	*	*	*	*	*	*	*	*	*	*	*	*	*	*	*	*	*	*	*	*	*
*	*	*	*	*	*2\right	*	*	*	*	*	*	*	*	*	*	*	*	*	*	*	*	*	*
!	!	!	!	!LO:DY:rj	!	!	!	!	!	!LO:DY:rj	!	!	!	!	!	!	!	!	!	!	!	!	!
4A/ 4AA/	4cc#/ 4a/	2.e\	(4A\	p	2e\	.	(4a/	.	(4cc#\	p	4A\	1.) Dzie-	3.) Nie-	.	4e\	3.) Nie-	.	4a/	.	(8.cc#\L	1.) Dzie-	.	.
.	.	.	.	.	.	.	.	.	.	.	.	.	.	.	.	.	.	.	.	16ee\Jk)	.	.	.
4G#/ 4GG#/	4ee/ 4b/	.	4G#\)	.	.	.	4b/	.	4ee\)	.	4G#\	-ci	-chaj	.	4e\	-chaj	.	4b/	.	4ee\	-ci	.	.
4Gn/ 4GGn/	4cc#/ 4a/	.	4Gn\	.	4e\	.	4a/)	.	4cc#\	.	4Gn\	nie-	w Chri-	.	4e\	w Chri-	.	4a/	.	4cc#\	nie-	.	.
=4	=4	=4	=4	=4	=4	=4	=4	=4	=4	=4	=4	=4	=4	=4	=4	=4	=4	=4	=4	=4	=4	=4	=4
4.F#\ 4.FF#\	4ee/	4.a\ 4.d\	4.F#\	.	4.d\	.	4.a/	.	(4ee\	.	4F#\	-go-	-stu-	.	4d\	-stu-	.	4a/	.	4ee\	-go-	.	.
.	8dd/	.	.	.	.	.	.	.	8dd\)	.	8F#\	-dne	-sa	.	8d\	-sa	.	8a/	.	8dd\	-dne	.	.
8r	8r	8r	8r	.	8r	.	8r	.	8r	.	8r	.	.	.	8r	.	.	8r	.	8r	.	.	.
4E/ 4EE/	4cc#/ 4a/ 4e/	4ryy	4E\	.	4r	.	4a/	.	4cc#\	.	4E\	tak	i-	.	4r	.	.	4a/	.	4cc#\	tak	.	.
=5	=5	=5	=5	=5	=5	=5	=5	=5	=5	=5	=5	=5	=5	=5	=5	=5	=5	=5	=5	=5	=5	=5	=5
2D#X/ 2DD#X/	8cc#/L	4f#\	4D#X\	.	4r	.	4f#/	.	(8cc#\L	.	4D#X\	wiel-	-dzie-	.	4r	.	.	4f#/	.	(8cc#\L	wiel-	.	.
.	8b/J	.	.	.	.	.	.	.	8b\J)	.	.	.	.	.	.	.	.	.	.	8b\J)	.	.	.
.	4f#/	4f#\	4D#\	.	4r	.	4f#/	.	4f#/	.	4D#\	-kiej	-my	.	4r	.	.	4f#/	.	4f#/	-kiej	.	.
4Dn/ 4DDn/	4g#/ 4e/ 4B/	4ryy	4Dn\	.	4e\	.	4e/	.	4g#/	.	4Dn\	o-	przy-	.	4e\	.	.	4e/	.	4g#/	o-	.	.
*	*v	*v	*	*	*	*	*	*	*	*	*	*	*	*	*	*	*	*	*	*	*	*	*
=6	=6	=6	=6	=6	=6	=6	=6	=6	=6	=6	=6	=6	=6	=6	=6	=6	=6	=6	=6	=6	=6	=6
!!LO:LB:g=original
8.C#/L 8.CC#/	8.a/L 8.e/ 8.A/	8.C#/L	.	2e\	.	(8.e/L	.	(8.a/L	.	8.C#/L	-fia-	-kła-	.	4e\	.	.	(8.e/L	.	(8.a/L	-fia-	.	.
16AA/Jk	16cc#/Jk 16a/ 16e/	16AA/Jk	.	.	.	16a/Jk)	.	16cc#/Jk)	.	16AA/Jk	.	.	.	.	.	.	16a/Jk)	.	16cc#/Jk)	.	.	.
4E/ 4EE/	4b/ 4g#/ 4e/	4E\	.	.	.	4g#/	.	4b/	.	4E\	-ry	-dy	.	4e\	.	.	4g#/	.	4b\	-ry	.	.
4r	4r	4r	.	4r	.	4r	.	4r	.	4r	.	.	.	4r	.	.	4r	.	4r	.	.	.
=7	=7	=7	=7	=7	=7	=7	=7	=7	=7	=7	=7	=7	=7	=7	=7	=7	=7	=7	=7	=7	=7	=7
*	*	*tremolo	*	*tremolo	*	*tremolo	*	*tremolo	*	*2\right	*	*	*	*2\right	*	*	*	*	*2\right	*	*	*
*	*	*2\right	*	*	*	*	*	*2\right	*	*	*	*	*	*	*	*	*	*	*	*	*	*
!	!	!	!LO:DY:a:rj	!	!	!	!	!	!LO:DY:a:rj	!	!	!	!	!	!	!	!	!	!	!	!	!
2F#/ 2FF#/	2dd/ 2a/ 2d/	8F#\L	f	8d\L	.	8a/L	.	8dd\L	f	2F#\	z Twe-	czy	.	2d\	.	.	2a/	.	2dd\	z Twe-	.	.
.	.	8F#\	.	8d\	.	8a/	.	8dd\	.	.	.	.	.	.	.	.	.	.	.	.	.	.
.	.	8F#\	.	8d\	.	8a/	.	8dd\	.	.	.	.	.	.	.	.	.	.	.	.	.	.
.	.	8F#\J	.	8d\J	.	8a/J	.	8dd\J	.	.	.	.	.	.	.	.	.	.	.	.	.	.
4G#/ 4GG#/	4ee/ 4b/ 4e/	8G#\L	.	8e\L	.	8b/L	.	8ee\L	.	4G#\	-go	to	.	4e\	.	.	4b/	.	4ee\	-go	.	.
.	.	8G#\J	.	8e\J	.	8b/J	.	8ee\J	.	.	.	.	.	.	.	.	.	.	.	.	.	.
=8	=8	=8	=8	=8	=8	=8	=8	=8	=8	=8	=8	=8	=8	=8	=8	=8	=8	=8	=8	=8	=8	=8
4A\ 4AA\	4cc#/ 4a/ 4e/	8A\L	.	8e\L	.	8a/L	.	8cc#\L	.	(4A\	sto-	w szczę-	.	2e\	.	.	(4a/	.	(4cc#\	sto-	.	.
.	.	8A\J	.	8e\	.	8a/J	.	8cc#\J	.	.	.	.	.	.	.	.	.	.	.	.	.	.
4B\ 4BB\	4g#/ 4e/ 4d/	8B\L	.	8e\	.	8e/L	.	8g#/L	.	4B\)	.	.	.	.	.	.	4e/)	.	4g#/)	.	.	.
.	.	8B\J	.	8e\	.	8e/	.	8g#/J	.	.	.	.	.	.	.	.	.	.	.	.	.	.
4c#\ 4C#\	4a/ 4e/	8c#\L	.	8e\	.	8e/	.	8a/L	.	4c#\	-łu	-ściu	.	4e\	.	.	4e/	.	4a/	-łu	.	.
.	.	8c#\J	.	8e\J	.	8e/J	.	8a/J	.	.	.	.	.	.	.	.	.	.	.	.	.	.
=9	=9	=9	=9	=9	=9	=9	=9	=9	=9	=9	=9	=9	=9	=9	=9	=9	=9	=9	=9	=9	=9	=9
*^	*	*	*	*	*	*	*	*	*	*	*	*	*	*	*	*	*	*	*	*	*	*
*2\right	*	*	*	*	*	*	*	*	*	*	*	*	*	*	*	*	*	*	*	*	*	*	*
2B\ 2BB\	4ryy	4g#/ 4e/	2B\	.	8e\	.	4e/	.	4g#/	.	2B\	da-	czy	.	(8e\L	.	.	(4e/	.	(4g#/	da-	.	.
.	.	.	.	.	4.B/	.	.	.	.	.	.	.	.	.	8B\J)	.	.	.	.	.	.	.	.
.	4ryy	8cc#/L 8a/	.	.	.	.	(8a/L	.	(8cc#/L	.	.	.	.	.	4B\	.	.	8a/L	.	8cc#/L	.	.	.
.	.	8b/ 8g#/	.	.	.	.	8g#/J)	.	8b/J)	.	.	.	.	.	.	.	.	8g#/J)	.	8b/J	.	.	.
8B/L	4BB\	8a/ 8f#/	4BB/	.	(8B/L	.	(8f#/L	.	(8a/L	.	4BB/	-ry	w nie-	.	8B\L	.	.	(8f#/L	.	8a/L)	.	.	.
8A/J	.	8f#/J 8d#X/	.	.	8A/J)	.	8d#X/J)	.	8f#/J)	.	.	.	.	.	8A\J	.	.	8d#X/J)	.	8f#/J	-ry	.	.
*v	*v	*	*	*	*	*	*	*	*	*	*	*	*	*	*	*	*	*	*	*	*	*	*
=10	=10	=10	=10	=10	=10	=10	=10	=10	=10	=10	=10	=10	=10	=10	=10	=10	=10	=10	=10	=10	=10	=10
4A\ 4BB\	4f#/ 4d#X/ [4B/	4BB^>/	.	(4A/	.	4d#X/	.	(4f#^>/	.	4BB/	bio-	-do-	.	4A/	.	.	4d#X/	.	4f#/	bio-	.	.
4G#\ 4E\	4e/ 4B/]	4E\	.	4G#/)	.	4e/	.	4e/)	.	4E\	-rą	-li	.	4G#/	.	.	4e/	.	4e/	-rą	.	.
(4E\	4r	(4E\	.	4r	.	4r	.	4r	.	(4E\	Rę-	On	.	4r	.	.	4r	.	4r	.	.	.
=11	=11	=11	=11	=11	=11	=11	=11	=11	=11	=11	=11	=11	=11	=11	=11	=11	=11	=11	=11	=11	=11	=11
*^	*	*	*	*	*	*	*	*	*	*	*	*	*	*	*	*	*	*	*	*	*	*
2Fn\)	4ryy	2.r	4Fn\)	.	4r	.	2.r	.	2.r	.	4Fn\)	.	.	.	4r	.	.	2.r	.	2.r	.	.	.
.	4ryy	.	4F\	.	4r	.	.	.	.	.	4F\	-ce	nam	.	4r	.	.	.	.	.	.	.	.
4A/	4F\	.	4F\	.	4A/	.	.	.	.	.	4F\	do	po-	.	4A/	do	.	.	.	.	.	.	.
=12	=12	=12	=12	=12	=12	=12	=12	=12	=12	=12	=12	=12	=12	=12	=12	=12	=12	=12	=12	=12	=12	=12	=12
!!LO:PB:g=original
*	*	*^	*	*	*	*	*	*	*	*	*	*	*	*	*	*	*	*	*	*	*	*	*
[2A/	[>2Fn\	4r	4ryy	4.Fn\	.	4.A/	.	2.r	.	4r	.	4.Fn\	Oj-	-ka-	.	4.A/	Oj-	.	2.r	.	4r	.	.	.
.	.	4r	4ryy	.	.	.	.	.	.	4r	.	.	.	.	.	.	.	.	.	.	4r	.	.	.
.	.	.	.	8F\	.	8A/	.	.	.	.	.	8F\	-ca	-zał	.	8A/	-ca	.	.	.	.	.	.	.
4A/]	4F\]	8b/L	4b\	4F\	.	4A/	.	.	.	(8a/L	.	4F\	po-	i	.	4A/	po-	.	.	.	8a/L	po-	.	.
.	.	8cc#/J	.	.	.	.	.	.	.	8b/J)	.	.	.	.	.	.	.	.	.	.	8b/J	.	.	.
=13	=13	=13	=13	=13	=13	=13	=13	=13	=13	=13	=13	=13	=13	=13	=13	=13	=13	=13	=13	=13	=13	=13	=13	=13
2A/	2Fn\	2ccn/	2a\	4Fn\	.	4A/	.	4r	.	4ccn\	.	4Fn\	-dno-	wzo-	.	4A/	-dno-	.	4r	.	4ccn\	-dno-	.	.
.	.	.	.	.	.	.	<	.	.	.	.	.	.	.	.	.	.	.	.	.	.	.	.	.
.	.	.	.	4F\	.	4A/	.	4r	.	4cc\	.	4F\	-szą	-ry	.	4A/	-szą	.	4r	.	4cc\	-szą	.	.
4A/	4F\	4dd/	(4a\	4F\	.	4A/	[[	(4a/	.	4dd\	.	4F\	po-	i	.	4A/	po-	.	(4a/	po-	4dd\	po-	.	.
*v	*v	*	*	*	*	*	*	*	*	*	*	*	*	*	*	*	*	*	*	*	*	*	*	*
=14	=14	=14	=14	=14	=14	=14	=14	=14	=14	=14	=14	=14	=14	=14	=14	=14	=14	=14	=14	=14	=14	=14	=14
2.B\ 2.E\	2.ee/	4a\	2E\	.	2B/	.	4a/	.	2ee\	.	2E\	-da-	śla-	.	2B\	-da-	.	4a/	-da-	2ee\	-da-	.	.
.	.	8g#\L)	.	.	.	.	8g#/L	.	.	.	.	.	.	.	.	.	.	8g#/L	.	.	.	.	.
.	.	8f#\J	.	.	.	.	8f#/J	.	.	.	.	.	.	.	.	.	.	8f#/J)	.	.	.	.	.
.	.	4g#\	4E\	.	4B/	.	4g#/)	.	4ee\	.	4E\	-ry	-dy	.	4B\	-ry	.	4g#/	-ry	4ee\	-ry	.	.
=15	=15	=15	=15	=15	=15	=15	=15	=15	=15	=15	=15	=15	=15	=15	=15	=15	=15	=15	=15	=15	=15	=15	=15
*	*	*	*	*	*	*	*	*	*	*	*	*	*	*below	*	*	*	*	*	*	*	*	*
4A/ 4AA/	4cc#/ 4a/	2.e\	(4A\	.	(4c#\	.	(4a/	.	(4cc#\	.	(4A\	I	Jak	.	(4c#\	.	.	(4a/	.	(4cc#\	I	.	.
!	!	!	!	!	!	!	!	!	!	!	!	!	!	!	!	!	!	!	!	!	!	!	!LO:DY:a
4G#/ 4GG#/	4ee/ 4b/	.	4G#\)	.	4e\)	.	4b/)	.	4ee\)	.	4G#\)	.	.	<	4e\)	.	.	4b/)	.	4ee\)	.	.	<
4Gn/ 4GGn/	4cc#/ 4a/	.	4Gn\	.	4e\	.	4a/	.	4cc#\	.	4Gn\	z u-	żyć	[[	4e\	.	.	4a/	.	4cc#\	z u-	.	[[
=16	=16	=16	=16	=16	=16	=16	=16	=16	=16	=16	=16	=16	=16	=16	=16	=16	=16	=16	=16	=16	=16	=16	=16
!	!	!	!	!	!	!	!	!	!	!	!	!	!	!	!	!	!	!	!	!	!	!	!LO:DY:a
4.F#/ 4.FF#/	4ee/	4.a\ 4.d\	4.F#\	.	4.d\	.	4.a/	.	(4ee\	.	4F#\	-fno-	we-	>	4d\	.	.	4a/	.	4ee\	-fno-	.	>
.	8dd/	.	.	.	.	.	.	.	8dd\)	.	8F#\	-ścią	-dług	]]	8d\	.	.	8a/	.	8dd\	-ścią	.	]]
!	!	!	!	!	!	!	!	!	!	!	!	!	!	!	!	!	!	!	!	!	!	!	!LO:DY:a
8r	8r	8r	8r	.	8r	.	8r	.	8r	.	8r	.	.	.	8r	.	.	8r	.	8r	.	.	p
!	!	!	!	!LO:DY:a:rj	!	!	!	!	!	!LO:DY:rj	!	!	!	!	!	!	!	!	!	!	!	!	!
4d\ 4A\ 4Fn\	8.a/L	8.a\L	8.Fn\L	p	8.d\L	.	8.a/L	.	8.a/L	p	8.Fn\	i	Oj-	.	8.d\	.	.	8.a/	.	8.a/	i	.	.
.	16b/Jk	16a\Jk	16F\Jk	.	16d\Jk	.	16a/Jk	.	16b/Jk	.	16F\	z po-	-ca	.	16d\	.	.	16a/	.	16b/	z po-	.	.
=17	=17	=17	=17	=17	=17	=17	=17	=17	=17	=17	=17	=17	=17	=17	=17	=17	=17	=17	=17	=17	=17	=17	=17
2e\ 2A\ 2E\	4cc#/	2a\	2E\	.	2e\	.	2a/	.	(4cc#\	.	2.E\	-ko-	wo-	.	2.e\	.	.	(2a/	.	(4cc#\	-ko-	.	.
.	4b/	.	.	.	.	.	.	.	4b\)	.	.	.	.	.	.	.	.	.	.	4b\	.	.	.
4e\ 4B\ 4E\	4ee/	4g#\	4EE/	.	4e\	.	4g#/	.	4ee\	.	.	.	.	.	.	.	.	4g#/)	.	4ee\)	.	.	.
=18	=18	=18	=18	=18	=18	=18	=18	=18	=18	=18	=18	=18	=18	=18	=18	=18	=18	=18	=18	=18	=18	=18	=18
!!LO:LB:g=original
4e\ 4A\	4cc#/	4a\	4AA/	.	4e/ 4A/	.	4a/	.	4cc#\	.	4A\	-rą	-li	.	4e\	.	.	4a/	.	4cc#\	-rą	.	.
8r	8r	8ryy	8r	.	8r	.	8r	.	8r	.	4r	.	.	.	4r	.	.	4r	.	4r	.	.	.
8c#\L 8C#\	8ee/L 8a/ 8e/	8ryy	(8C#/L	.	(8e\L	.	(8a/L	.	(8ee\L	.	.	.	.	.	.	.	.	.	.	.	.	.	.
8B\ 8BB\	8dd/ 8b/ 8f#/	8ryy	8BB/)	.	8f#\)	.	8b/)	.	8dd\)	.	4r	.	.	.	4r	.	.	4r	.	4r	.	.	.
8E\J 8EE\	8b/J 8g#/ 8e/	8ryy	8E'/J	.	8e'\J	.	8g#'/J	.	8b'\J	.	.	.	.	.	.	.	.	.	.	.	.	.	.
*	*v	*v	*	*	*	*	*	*	*	*	*	*	*	*	*	*	*	*	*	*	*	*	*
=19	=19	=19	=19	=19	=19	=19	=19	=19	=19	=19	=19	=19	=19	=19	=19	=19	=19	=19	=19	=19	=19	=19
*	*	*	*	*tremolo	*	*tremolo	*	*tremolo	*	*	*	*	*above	*	*	*	*	*	*	*	*	*
!	!	!	!LO:DY:a:rj	!	!	!	!	!	!LO:DY:rj	!	!	!	!LO:DY:rj	!	!	!	!	!	!	!	!	!LO:DY:a:rj
4A\ 4AA\	[2.cc#/ [2.a/ [2.c#/	4A\	f	8c#\L	.	8a/L	.	8cc#\L	f	(4A\	I	Jak	f	2c#\	.	.	2a/	.	2cc#\	I	.	f
.	.	.	.	8c#\	.	8a/	.	8cc#\	.	.	.	.	.	.	.	.	.	.	.	.	.	.
4G#\ 4GG#\	.	4G#\	.	8c#\	.	8a/	.	8cc#\	.	4G#\)	.	.	.	.	.	.	.	.	.	.	.	.
.	.	.	.	8c#\	.	8a/	.	8cc#\J	.	.	.	.	.	.	.	.	.	.	.	.	.	.
4F#/ 4FF#/	.	4F#\	.	8c#\	.	8a/	.	8cc#\L	.	4F#\	z u-	żyć	.	4c#\	.	.	4a/	.	4cc#\	z u-	.	.
.	.	.	.	8c#\J	.	8a/J	.	8cc#\J	.	.	.	.	.	.	.	.	.	.	.	.	.	.
=20	=20	=20	=20	=20	=20	=20	=20	=20	=20	=20	=20	=20	=20	=20	=20	=20	=20	=20	=20	=20	=20	=20
4E#X/ 4EE#X/	2cc#/] 2a/] 2c#/]	4E#X\	.	8c#\L	.	8a/L	.	8cc#\L	.	4E#X\	-fno-	we-	.	4c#\	.	.	4a/	.	4cc#\	-fno-	.	.
.	.	.	.	8c#\	.	8a/	.	8cc#\	.	.	.	.	.	.	.	.	.	.	.	.	.	.
4F#/ 4FF#/	.	4F#\	.	8c#\	.	8a/	.	8cc#\	.	4F#\	-ścią	-dług	.	4c#\	.	.	4a/	.	4cc#\	-ścią	.	.
.	.	.	.	8c#\J	.	8a/J	.	8cc#\J	.	.	.	.	.	.	.	.	.	.	.	.	.	.
!	!	!	!LO:DY:a:rj	!	!	!	!	!	!LO:DY:rj	!	!	!	!LO:DY:rj	!	!	!	!	!	!	!	!	!LO:DY:a:rj
8.C#/L 8.CC#/	8.cc#/L 8.f#/ 8.c#/	8.C#/L	p	8.c#/L	.	8.a/L	.	8.cc#\L	p	8.C#/	i	Oj-	p	8.c#\	.	.	8.a/	.	8.cc#\	i	.	p
16D/Jk 16DD/	16b/Jk 16f#/ 16B/	16D/Jk	.	16B/Jk	.	16f#/Jk	.	16b\Jk	.	16D/	z po-	-ca	.	16B\	.	.	16f#/	.	16b\	z po-	.	.
=21	=21	=21	=21	=21	=21	=21	=21	=21	=21	=21	=21	=21	=21	=21	=21	=21	=21	=21	=21	=21	=21	=21
*	*^	*	*	*	*	*	*	*	*	*	*	*	*	*	*	*	*	*	*	*	*	*
2.E\ 2.EE\	8a/L	4c#\	2E\	.	(4c#/	.	(4e/	.	(8a/L	.	2.E\	-ko-	wo-	.	4c#\	.	.	(4e/	.	(>8a/L	-ko-	.	.
.	8e/J	.	.	.	.	.	.	.	8e/J	.	.	.	.	.	.	.	.	.	.	8e/J	.	.	.
.	4f#/ 4d#X/	4cn\	.	.	4cn/	.	4d#X/	.	4f#/	.	.	.	.	.	4cn\	.	.	4d#X/	.	4f#/	.	.	.
.	4g#/ 4dn/	4B\	4E\	.	4B/	.	4dn/	.	4g#/)	.	.	.	.	.	4B\	.	.	4dn/)	.	4g#/)	.	.	.
*	*v	*v	*	*	*	*	*	*	*	*	*	*	*	*	*	*	*	*	*	*	*	*	*
=22	=22	=22	=22	=22	=22	=22	=22	=22	=22	=22	=22	=22	=22	=22	=22	=22	=22	=22	=22	=22	=22	=22
4A\ 4AA\	4a/ 4c#/	4AA/	.	4A/)	.	4c#/)	.	4a/	.	4A\	-rą.	-li.	.	4A\	.	.	4c#/	.	4a/	-rą	.	.
8r	8r	8r	.	8r	.	8r	.	8r	.	4r	.	.	.	4r	.	.	4r	.	4r	.	.	.
*	*	*	*	*Xtremolo	*	*	*	*	*	*	*	*	*	*	*	*	*	*	*	*	*	*
8c#\L 8C#\	8aa\L 8ee\ 8a\	(8C#/L	.	8e\L	.	(8a/L	.	(8ee\L	.	.	.	.	.	.	.	.	.	.	.	.	.	.
8B\ 8BB\	8ff#\ 8dd\ 8b\	8BB/)	.	8f#\	.	8b/)	.	8dd\)	.	4r	.	.	.	4r	.	.	4r	.	4r	.	.	.
8B\J 8E\	8gg#\J 8dd\ 8b\	8E'/J	.	8e\J	.	8g#'/J	.	8b'\J	.	.	.	.	.	.	.	.	.	.	.	.	.	.
=23	=23	=23	=23	=23	=23	=23	=23	=23	=23	=23	=23	=23	=23	=23	=23	=23	=23	=23	=23	=23	=23	=23
!LO:TX:t=P:problem=takt wykreślony ołówkiem	!LO:TX:t=P:problem=takt wykreślony ołówkiem	!LO:TX:t=P:problem=takt wykreślony ołówkiem	!	!LO:TX:t=P:problem=takt wykreślony ołówkiem	!	!LO:TX:t=P:problem=takt wykreślony ołówkiem	!	!LO:TX:t=P:problem=takt wykreślony ołówkiem	!	!LO:TX:t=P:problem=takt wykreślony ołówkiem	!	!	!	!LO:TX:t=P:problem=takt wykreślony ołówkiem	!	!	!LO:TX:t=P:problem=takt wykreślony ołówkiem	!	!LO:TX:t=P:problem=takt wykreślony ołówkiem	!	!	!
4c#\ 4A\	4aa\ 4cc#\ 4a\	4AA/	.	4e/ 4A/	.	4a/	.	4cc#\	.	2.r	.	.	.	2.r	.	.	2.r	.	2.r	.	.	.
8r	8r	8r	.	8r	.	8r	.	8r	.	.	.	.	.	.	.	.	.	.	.	.	.	.
8C#/L 8CC#/	8a/L 8e/ 8A/	(8C#/L	.	8A/L	.	8e/L	.	8a/L	.	.	.	.	.	.	.	.	.	.	.	.	.	.
8BB/ 8BBB/	8f#/ 8d/ 8B/	8BB/)	.	8d/	.	8f#/	.	8b/	.	.	.	.	.	.	.	.	.	.	.	.	.	.
8E/J 8EE/	8g#/J 8d/	8E'/J	.	8B/J	.	8d/J	.	8g#/J	.	.	.	.	.	.	.	.	.	.	.	.	.	.
=24	=24	=24	=24	=24	=24	=24	=24	=24	=24	=24	=24	=24	=24	=24	=24	=24	=24	=24	=24	=24	=24	=24
!!LO:PB:g=original
*	*^	*	*	*	*	*	*	*	*	*	*	*	*	*	*	*	*	*	*	*	*	*
8A\L 8AA\	8a/L 8c#/	4ryy	8A'\L	.	8A'/L	.	8c#'/L	.	8a'/L	.	4A\	rą	li	.	4A/	.	.	4c#/	.	4a/	rą	.	.
8A\J	8a/J	.	8A'\J	.	8A'/J	.	8a'/J	.	8a'/J	.	.	.	.	.	.	.	.	.	.	.	.	.	.
8B\L	8b/L	4ryy	(8B\L	.	(8B/L	.	(8b/L	.	(8b/L	.	4r	.	.	.	4r	.	.	4r	.	4r	.	.	.
8A\J	8a/J	.	8A\J)	.	8A/J)	.	8a/J)	.	8a/J)	.	.	.	.	.	.	.	.	.	.	.	.	.	.
8Gn\L	8b/L	4gn\	(8Gn\L	.	(8Gn/L	.	4gn/	.	(8b/L	.	4r	.	.	.	4r	.	.	4r	.	4r	.	.	.
8E\J	8cc#/J	.	8E\J)	.	8E/J)	.	.	.	8cc#/J)	.	.	.	.	.	.	.	.	.	.	.	.	.	.
*	*v	*v	*	*	*	*	*	*	*	*	*	*	*	*	*	*	*	*	*	*	*	*	*
=25	=25	=25	=25	=25	=25	=25	=25	=25	=25	=25	=25	=25	=25	=25	=25	=25	=25	=25	=25	=25	=25	=25
[2D\	4dd/ 4f#/	4D\	.	4D/	.	4f#/	.	4dd\	.	4D\	.	.	.	4d\	.	.	4f#/	.	4dd\	2.) Pa-	4.) Bo-	.
.	4.f#/ 4.d/	4.D\	.	4.d\	.	4.d/	.	4.f#/	.	4.D\	.	.	.	4.d\	.	.	4.d/	.	4.f#/	-nem	-ży	.
8D\L]	.	.	.	.	.	.	.	.	.	.	.	.	.	.	.	.	.	.	.	.	.	.
!	!	!	!	!	!	!	!	!	!	!LO:SIC:v:s=8Gn	!	!	!	!	!	!	!	!	!	!	!	!
8Gn\J	8b/ 8gn/ 8d/	8Gn\	.	8d\	.	8d/	.	8b/	.	8G#\	.	.	.	8d\	.	.	8d/	.	8b/	Ty	ba-	.
=26	=26	=26	=26	=26	=26	=26	=26	=26	=26	=26	=26	=26	=26	=26	=26	=26	=26	=26	=26	=26	=26	=26
4F#\	4a/ 4d/	4F#\	.	4d\	.	4d/	.	4a/	.	4F#\	.	.	.	4d\	.	.	4d/	.	4a/	na-	-ran-	.
4.D/	4.f#/ 4.d/	4.D\	.	4.d\	.	4.d/	.	4.f#/	.	4.D\	.	.	.	4.d\	.	.	4.d/	.	4.f#/	-szym	-ku	.
8C#/	8a/ 8e/	8C#/	.	8A/	.	8e/	.	8a/	.	8C#/	.	.	.	8A\	.	.	8e/	.	8a/	i	coś	.
=27	=27	=27	=27	=27	=27	=27	=27	=27	=27	=27	=27	=27	=27	=27	=27	=27	=27	=27	=27	=27	=27	=27
4BB/	4dd/ 4f#/	4BB/	.	4B/	.	4f#/	.	4dd\	.	4BB/	.	.	.	4B\	.	.	4f#/	.	4dd\	Oj-	zma-	.
4.B\ 4.BB\	4.dd/ 4.f#/	4.B\	.	4.B/	.	4.f#/	.	4.dd\	.	4.B\	.	.	.	4.B\	.	.	4.f#/	.	4.dd\	-cem	-zał	.
8Gn/ 8GGn/	8ee\ 8b\	8Gn\	.	8B/	.	8b\	.	8ee\	.	8Gn\	.	.	.	8B\	.	.	8b\	.	8ee\	na	grzech	.
=28	=28	=28	=28	=28	=28	=28	=28	=28	=28	=28	=28	=28	=28	=28	=28	=28	=28	=28	=28	=28	=28	=28
*	*^	*	*	*	*	*	*	*	*	*	*	*	*	*	*	*	*	*	*	*	*	*
2F#/ 2FF#/	2ff#/	4b\	2F#\	.	2c#\	.	(4b/	.	2ff#\	.	2F#\	.	.	.	2c#\	.	.	(4b/	.	2ff#\	wie-	świa-	.
.	.	8a#X\L	.	.	.	.	8a#X/L	.	.	.	.	.	.	.	.	.	.	8a#X/L	.	.	.	.	.
.	.	8g#\J	.	.	.	.	8g#X/J	.	.	.	.	.	.	.	.	.	.	8g#X/J)	.	.	.	.	.
4F#/ 4FF#/	4cc#/	4a#\	4F#\	.	4c#\	.	4a#/)	.	4cc#\	.	4F#\	.	.	.	4c#\	.	.	4a#/	.	4cc#\	-ki	-ta	.
*	*v	*v	*	*	*	*	*	*	*	*	*	*	*	*	*	*	*	*	*	*	*	*	*
=29	=29	=29	=29	=29	=29	=29	=29	=29	=29	=29	=29	=29	=29	=29	=29	=29	=29	=29	=29	=29	=29	=29
*	*	*	*	*	*	*2\right	*	*	*	*	*	*	*	*	*	*	*2\right	*	*	*	*	*
4Gn/ 4GGn/	4b/ 4gn/	(4Gn\	.	2e\	.	2b\	.	4b'\	.	4Gn\	.	.	.	2e\	.	.	2b\	.	(4b\	cho-	A-	.
4E/ 4EE/	4ggn\ 4b\ 4g\	4E\)	.	.	.	.	.	(4ggn\	.	4E\	.	.	.	.	.	.	.	.	4ggn\)	.	.	.
4A/ 4AA/	4cc#/ 4g/ 4e/	4AA/	.	4e\	.	4gn/	.	4cc#\)	.	4AA/	.	.	.	4e\	.	.	4gn/	.	4cc#\	-ciasz	-by	.
=30	=30	=30	=30	=30	=30	=30	=30	=30	=30	=30	=30	=30	=30	=30	=30	=30	=30	=30	=30	=30	=30	=30
!!LO:LB:g=original
4.BB/	4.dd/ 4.f#/ 4.d/	4.BB/	.	4.d\	.	4.f#/	.	4.dd\	.	4BB/	.	.	.	4d\	.	.	4f#/	.	4dd\	sła-	lud	.
.	.	.	.	.	.	.	.	.	.	8BB/	.	.	.	8d\	.	.	8f#/	.	8dd\	-bi	Twój	.
8r	8r	8r	.	8r	.	8r	.	8r	.	8r	.	.	.	8r	.	.	8r	.	8r	.	.	.
8.BB/L	8.dd/L 8.b/ 8.f#/	8.BB/L	.	8.d/L	.	8.f#/L	.	8.dd\L	.	8.BB/	.	.	.	8.d\	.	.	8.f#/	.	8.dd\	po-	żył	.
16GGn/Jk	16ee/Jk 16b/ 16gn/	16GGn/Jk	.	16B/Jk	.	16gn/Jk	.	16ee\Jk	.	16GGn/	.	.	.	16B\	.	.	16gn/	.	16dd\	-błą-	bez-	.
=31	=31	=31	=31	=31	=31	=31	=31	=31	=31	=31	=31	=31	=31	=31	=31	=31	=31	=31	=31	=31	=31	=31
!LO:TX:t=P:problem=mixed beam	!	!LO:TX:t=P:problem=mixed beam	!	!	!	!	!	!	!	!	!	!	!	!	!	!	!	!	!	!	!	!
8AA/L	2.cc#/ 2.gn/ 2.e/	8AA'/L	.	2.eTT\	.	2.gn/	.	(<2.cc#tt\	.	2.AA/	.	.	.	2.e\	.	.	2.gn/	.	2.cc#\	-dzie-	-pie-	.
8A\J	.	8A'\J	.	.	.	.	.	.	.	.	.	.	.	.	.	.	.	.	.	.	.	.
8Gn\L	.	(8Gn\L	.	.	.	.	.	.	.	.	.	.	.	.	.	.	.	.	.	.	.	.
8E\J	.	8E\J)	.	.	.	.	.	.	.	.	.	.	.	.	.	.	.	.	.	.	.	.
8C#/L	.	(8C#/L	.	.	.	.	.	.	.	.	.	.	.	.	.	.	.	.	.	.	.	.
8AA/J	.	8AA/J)	.	.	.	.	.	.	.	.	.	.	.	.	.	.	.	.	.	.	.	.
.	.	.	.	(16qqd#X/LL	.	.	.	16qqb/LL	.	.	.	.	.	.	.	.	.	.	.	.	.	.
.	.	.	.	16qqe/JJ	.	.	.	16qqcc#/JJ	.	.	.	.	.	.	.	.	.	.	.	.	.	.
!!ignore
=32	=32	=32	=32	=32	=32	=32	=32	=32	=32	=32	=32	=32	=32	=32	=32	=32	=32	=32	=32	=32	=32	=32
*^	*	*	*	*	*	*	*	*	*	*	*	*	*	*	*	*	*	*	*	*	*	*
4.D\	4ryy	4.dd/ 4.f#/ 4.d/	4.D\	.	4.dn\)	.	4.f#/	.	4.dd\)	.	4.D\	.	.	.	4.d\	.	.	4.f#/	.	4.dd\	-my	-czny	.
.	4ryy	.	.	.	.	.	.	.	.	.	.	.	.	.	.	.	.	.	.	.	.	.	.
8r	.	8r	8r	.	8r	.	8r	.	8r	.	8r	.	.	.	8r	.	.	8r	.	8r	.	.	.
4A/	4rGG	4a/	(4A\	.	4r	.	(4a/	.	4r	.	(4A\	4.) U-	.	.	4r	.	.	(4a/	3.) Prze-	4r	.	.	.
=33	=33	=33	=33	=33	=33	=33	=33	=33	=33	=33	=33	=33	=33	=33	=33	=33	=33	=33	=33	=33	=33	=33	=33
2B-X/	2.rGG	2b-X/	4B-X\)	.	2.r	.	4b-X/)	.	2.r	.	4B-X\)	.	.	.	2.r	.	.	4b-X/)	.	2.r	.	.	.
.	.	.	(4B-\	.	.	.	(4b-/	.	.	.	4B-\	-twierdź	.	.	.	.	.	4b-/	-cie	.	.	.	.
4A/	.	4a/	4A\)	.	.	.	4a/)	.	.	.	4A\	w nas	.	.	.	.	.	4a/	zpod	.	.	.	.
=34	=34	=34	=34	=34	=34	=34	=34	=34	=34	=34	=34	=34	=34	=34	=34	=34	=34	=34	=34	=34	=34	=34	=34
8A/L	2.rGG	8a/L	(8A\L	.	2.r	.	(8a/L	.	2.r	.	8A\L	wia-	.	.	2.r	.	.	(8a/L	Two-	2.r	.	.	.
8Gn/J	.	8gn/J	8Gn\J	.	.	.	8gn/J	.	.	.	8Gn\J	.	.	.	.	.	.	8gn/J)	.	.	.	.	.
4E/	.	4e/	4E\)	.	.	.	4e/)	.	.	.	4E\	-rę	.	.	.	.	.	4e/	-iej	.	.	.	.
4Fn/	.	4fn/	4Fn\	.	.	.	4fn/	.	.	.	4Fn\	i	.	.	.	.	.	4fn/	nie	.	.	.	.
=35	=35	=35	=35	=35	=35	=35	=35	=35	=35	=35	=35	=35	=35	=35	=35	=35	=35	=35	=35	=35	=35	=35	=35
8D/L	2.rGG	8d/L	(8D/L	.	2.r	.	(8d/L	.	2.r	.	8D\L	mi-	.	.	2.r	.	.	8d/L	wyj-	2.r	.	.	.
8C#/J	.	8c#/J	8C#/J	.	.	.	8c#/J	.	.	.	8C#\J	.	.	.	.	.	.	8c#/J	.	.	.	.	.
4D/	.	4d/	4D\)	.	.	.	4d/)	.	.	.	4D\	-łość	.	.	.	.	.	4d/	-dziem	.	.	.	.
4E/	.	4e/	4E\	.	.	.	4e/	.	.	.	4E\	dla	.	.	.	.	.	4e/	o	.	.	.	.
*v	*v	*	*	*	*	*	*	*	*	*	*	*	*	*	*	*	*	*	*	*	*	*	*
=36	=36	=36	=36	=36	=36	=36	=36	=36	=36	=36	=36	=36	=36	=36	=36	=36	=36	=36	=36	=36	=36	=36
!!LO:PB:g=original
8Gn\L	(8gn/L	(8Gn\L	.	4r	.	(8gn/L	.	4r	.	(8Gn\L	bra-	.	.	4r	.	.	(8gn/L	pie-	4r	.	.	.
8Fn\J	8fn/J	8Fn\J	.	.	.	8fn/J	.	.	.	8Fn\J	.	.	.	.	.	.	8fn/J)	.	.	.	.	.
4E\	4e/)	4E\)	.	4r	.	4e/)	.	4r	.	4E\)	-ta	.	.	4r	.	.	4e/	-ki	4r	.	.	.
4A\ 4AA\	4a/	4A\	.	4A/	.	4a/	.	4a/	.	4A\	.	.	.	4A/	.	.	4a/	.	4a/	Gdy	Daj	.
=37	=37	=37	=37	=37	=37	=37	=37	=37	=37	=37	=37	=37	=37	=37	=37	=37	=37	=37	=37	=37	=37	=37
!LO:SIC:v:n=2:s=4.BB-	!	!	!	!	!	!	!	!	!	!	!	!	!	!	!	!	!	!	!	!	!	!
4.B-X\ 4.BB\	4.dd/ 4.fn/ 4.d/	4.B-X\	.	4.d\	.	4.d/	.	4.dd\	.	4.B-X\	.	.	.	4.d\	.	.	4.d/	.	4.dd\	Cię	nam	.
!LO:SIC:v:n=2:s=8BB-	!	!	!	!	!	!	!	!	!	!	!	!	!	!	!	!	!	!	!	!	!	!
8B-\L 8BB\	16dd/LL 16d/	16B-\LL	.	16d\LL	.	16d/LL	.	16dd\LL	<	16B-\	.	.	.	16d\	.	.	16d/	.	16dd\	po-	daj	.
.	16dd/JJ 16e/	16B-\JJ	.	16d\JJ	.	16e/JJ	.	16dd\JJ	.	16B-\	.	.	.	16d\	.	.	16e/	.	16dd\	-śród	nam	.
!LO:SIC:v:n=2:s=8BB-	!	!	!	!	!	!	!	!	!	!	!	!	!	!	!	!	!	!	!	!	!	!
8B-\ 8BB\	8dd/L 8fn/	8B-\L	.	8d\L	.	8fn/L	.	8dd\L	.	8B-\	.	.	.	8d\	.	.	8fn/	.	8dd\	nas	po-	.
!LO:SIC:v:n=2:s=8BB-	!	!	!	!	!	!	!	!	!	!	!	!	!	!	!	!	!	!	!	!	!	!
8B-\J 8BB\	8dd/J 8gn/	8B-\J	.	8d\J	.	8gn/J	.	8dd\J	[[	8B-\	.	.	.	8d\	.	.	8gn/	.	8dd\	czu-	-kój	.
=38	=38	=38	=38	=38	=38	=38	=38	=38	=38	=38	=38	=38	=38	=38	=38	=38	=38	=38	=38	=38	=38	=38
*	*^	*	*	*	*	*	*	*	*	*	*	*	*	*	*	*	*	*	*	*	*	*
4.A/ 4.AA/	4dd/	4.a\ 4.e\	4.A\	.	4.e\	.	4.a/	.	(4dd\	.	4A\	.	.	.	4e\	.	.	4a/	.	4dd\	-ie-	wie-	.
.	8cc#/	.	.	.	.	.	.	.	8cc#\)	.	8A\	.	.	.	8e\	.	.	8a/	.	8cc#\	-my	-czny	.
8c#\L 8C#\	8ee/L 8a/ 8e/	8ryy	(8C#/L	.	(8e\L	.	(8a/L	.	(8ee\L	.	8r	.	.	.	8r	.	.	8rg	.	8rg	.	.	.
8B\ 8BB\	8dd/ 8b/ 8f#/	8ryy	8BB/)	.	8f#\)	.	8b/)	.	8dd\)	.	4r	.	.	.	4r	.	.	4r	.	4r	.	.	.
8E\J 8EE\	8b/J 8g#/ 8e/	8ryy	8E'/J	.	8e'\J	.	8g#X'/J	.	8b'\J	.	.	.	.	.	.	.	.	.	.	.	.	.	.
*	*v	*v	*	*	*	*	*	*	*	*	*	*	*	*	*	*	*	*	*	*	*	*	*
=39	=39	=39	=39	=39	=39	=39	=39	=39	=39	=39	=39	=39	=39	=39	=39	=39	=39	=39	=39	=39	=39	=39
*	*	*	*	*tremolo	*	*tremolo	*	*tremolo	*	*	*	*	*	*	*	*	*	*	*	*	*	*
!	!	!	!LO:DY:a:rj	!	!	!	!	!	!LO:DY:rj	!	!	!	!LO:DY:a:rj	!	!	!	!	!	!	!	!	!LO:DY:a:rj
4A\ 4AA\	[2.cc#/ [>2.a/ [2.c#/	(4A\	f	8c#\L	.	8a/L	.	8cc#\L	f	4A\	.	.	f	2c#\	.	.	2a/	.	2cc#\	Gdy	Daj	f
.	.	.	.	8c#\	.	8a/	.	8cc#\	.	.	.	.	.	.	.	.	.	.	.	.	.	.
4G#\ 4GG#\	.	4G#\)	.	8c#\	.	8a/	.	8cc#\	.	4G#\	.	.	.	.	.	.	.	.	.	.	.	.
.	.	.	.	8c#\	.	8a/	.	8cc#\	.	.	.	.	.	.	.	.	.	.	.	.	.	.
4F#/ 4FF#/	.	4F#\	.	8c#\	.	8a/	.	8cc#\	.	4F#\	.	.	.	4c#\	.	.	4a/	.	4cc#\	Cię	nam	.
.	.	.	.	8c#\J	.	8a/J	.	8cc#\J	.	.	.	.	.	.	.	.	.	.	.	.	.	.
=40	=40	=40	=40	=40	=40	=40	=40	=40	=40	=40	=40	=40	=40	=40	=40	=40	=40	=40	=40	=40	=40	=40
4E#X/ 4EE#X/	2cc#/] 2a/] 2c#/]	4E#X\	.	8c#\L	.	8a/L	.	8cc#\L	.	4E#X\	.	.	.	4c#\	.	.	4a/	.	4cc#\	po-	po-	.
.	.	.	.	8c#\	.	8a/	.	8cc#\	.	.	.	.	.	.	.	.	.	.	.	.	.	.
4F#/ 4FF#/	.	4F#\	.	8c#\	.	8a/	.	8cc#\	.	4F#\	.	.	.	4c#\	.	.	4a/	.	4cc#\	-śród	-kój	.
.	.	.	.	8c#\J	.	8a/J	.	8cc#\J	.	.	.	.	.	.	.	.	.	.	.	.	.	.
!	!	!	!LO:DY:a:rj	!	!	!	!	!	!LO:DY:rj	!	!	!	!LO:DY:a:rj	!	!	!	!	!	!	!	!	!LO:DY:a:rj
8.C#/L 8.CC#/	8.cc#/L 8.a/ 8.c#/	8.C#/L	p	8.c#/L	.	8.a/L	.	8.cc#\L	p	8.C#/	.	.	p	8.c#\	.	.	8.a/	.	8.cc#\	nas	po-	p
16D/Jk 16DD/	16b/Jk 16f#/ 16B/	16D/Jk	.	16B/Jk	.	16f#/Jk	.	16b\Jk	.	16D/	.	.	.	16B\	.	.	16f#/	.	16b\	czu-	-kój	.
=41	=41	=41	=41	=41	=41	=41	=41	=41	=41	=41	=41	=41	=41	=41	=41	=41	=41	=41	=41	=41	=41	=41
*	*^	*	*	*	*	*	*	*	*	*	*	*	*	*	*	*	*	*	*	*	*	*
2.E/ 2.EE/	8a/L	4c#\	(2E\	.	(4c#/	.	(4e/	.	(8a/L	.	2.E\	.	.	.	(4c#\	.	.	(>4e/	.	(>8a/L	-ie-	wie-	.
.	8e/J	.	.	.	.	.	.	.	8e/J	.	.	.	.	.	.	.	.	.	.	8e/J	.	.	.
.	4f#/ 4d#X/	4cn\	.	.	4cn/	.	4d#X/	.	4f#/	.	.	.	.	.	4cn\	.	.	4d#X/	.	4f#/	.	.	.
.	4g#/ 4dn/ 4B/	4ryy	4EE/)	.	4B/)	.	4dn/)	.	4g#/)	.	.	.	.	.	4B\)	.	.	4dn/)	.	4g#/)	.	.	.
*	*v	*v	*	*	*	*	*	*	*	*	*	*	*	*	*	*	*	*	*	*	*	*	*
=42	=42	=42	=42	=42	=42	=42	=42	=42	=42	=42	=42	=42	=42	=42	=42	=42	=42	=42	=42	=42	=42	=42
!!LO:LB:g=original
4A\ 4AA\	4a/ 4c#/	4AA/	.	4A/	.	4c#/	.	4a/	.	4A\	.	.	.	4A\	.	.	4c#/	.	4a/	-my	-czny.	.
8r	8r	8r	.	8r	.	8r	.	8r	.	4r	.	.	.	4r	.	.	4r	.	4r	.	.	.
*	*	*	*	*Xtremolo	*	*	*	*	*	*	*	*	*	*	*	*	*	*	*	*	*	*
8c#\L 8C#\	8ee/L 8a/ 8e/	(8C#/L	.	(8e\L	.	(8a/L	.	(8ee\L	.	.	.	.	.	.	.	.	.	.	.	.	.	.
8B\ 8BB\	8dd/ 8b/ 8f#/	8BB/)	.	8f#\)	.	8b/)	.	8dd\)	.	4r	.	.	.	4r	.	.	4r	.	4r	.	.	.
8E\J 8EE\	8b/J 8g#/ 8e/	8E'/J	.	8e'\J	.	8g#'/J	.	8b'\J	.	.	.	.	.	.	.	.	.	.	.	.	.	.
=43	=43	=43	=43	=43	=43	=43	=43	=43	=43	=43	=43	=43	=43	=43	=43	=43	=43	=43	=43	=43	=43	=43
4A\ 4AA\	4cc#/ 4a/ 4e/	4AA/	.	4e/ 4A/	.	4a/	.	4cc#\	.	2.r	.	.	.	2.r	.	.	2.r	.	2.r	.	.	.
8r	8r	8r	.	8r	.	8r	.	8r	.	.	.	.	.	.	.	.	.	.	.	.	.	.
8C#/L 8CC#/	8a/L 8e/	(8C#/L	.	(8A/L	.	(8e/L	.	(8a/L	.	.	.	.	.	.	.	.	.	.	.	.	.	.
8BB/ 8BBB/	8b/ 8f#/ 8d/	8BB/)	.	8d/)	.	8f#/)	.	8b/)	.	.	.	.	.	.	.	.	.	.	.	.	.	.
8E/J 8EE/	8g#/J 8d/ 8B/	8E'/J	.	8B'/J	.	8d'/J	.	8g#'/J	.	.	.	.	.	.	.	.	.	.	.	.	.	.
=44:|!	=44:|!	=44:|!	=44:|!	=44:|!	=44:|!	=44:|!	=44:|!	=44:|!	=44:|!	=44:|!	=44:|!	=44:|!	=44:|!	=44:|!	=44:|!	=44:|!	=44:|!	=44:|!	=44:|!	=44:|!	=44:|!	=44:|!
*k[gnf#c#]	*k[gnf#c#]	*k[gnf#c#]	*	*k[gnf#c#]	*	*k[gnf#c#]	*	*k[gnf#c#]	*	*k[gnf#c#]	*	*	*	*k[gnf#c#]	*	*	*k[gnf#c#]	*	*k[gnf#c#]	*	*	*
*>B	*>B	*>B	*	*>B	*	*>B	*	*>B	*	*>B	*	*	*	*>B	*	*	*>B	*	*>B	*	*	*
!!!OMD: Dona nobis
*	*	*	*	*	*	*Xtremolo	*	*Xtremolo	*	*	*	*	*	*	*	*	*	*	*	*	*	*
!	!	!	!	!LO:TX:t=P:problem=znaki [gn f# c#]	!	!LO:TX:t=P:problem=znaki [ggn ff# cc#]	!	!LO:TX:t=P:problem=znaki [ggn ff# cc#]	!	!	!	!	!	!	!	!	!	!	!	!	!	!
!LO:TX:t=P:problem=znaki [Gn F# C#]	!LO:TX:t=P:problem=znaki [ggn ff# cc#]	!LO:TX:t=P:problem=znaki [Gn F# C#]	!	!	!	!	!	!LO:TX:a:t=Allo mod.to	!	!LO:TX:t=P:problem=znaki [Gn F# C#]	!	!	!	!	!	!	!LO:TX:t=P:problem=znaki [ggn ff# cc#]	!	!LO:TX:t=P:problem=znaki [ggn ff# cc#]	!	!	!
4A\ 4AA\	4a/ 4c#/	8A\L	.	8A/L	.	8c#/L	.	8a/L	.	4r	.	.	.	4r	.	.	4r	.	4r	.	.	.
.	.	16A\L	.	16A/L	.	16a/L	.	16a/L	.	.	.	.	.	.	.	.	.	.	.	.	.	.
.	.	16A\JJ	.	16A/JJ	.	16a/JJ	.	16a/JJ	.	.	.	.	.	.	.	.	.	.	.	.	.	.
4r	4r	8A\L	.	8A/L	.	8a/L	.	8a/L	.	4r	.	.	.	4r	.	.	4r	.	4r	.	.	.
.	.	16A\L	.	16A/L	.	16a/L	.	16a/L	.	.	.	.	.	.	.	.	.	.	.	.	.	.
.	.	16A\JJ	.	16A/JJ	.	16a/JJ	.	16a/JJ	.	.	.	.	.	.	.	.	.	.	.	.	.	.
!	!	!	!	!	!	!	!	!	!	!	!	!	!	!	!	!	!	!	!	!	!	!LO:DY:b:rj
4A\	4a/	8.A\L	.	8.A/L	.	8.a/L	.	8.a/L	.	8.A\	Gdy-	.	.	8.A/	.	.	8.a/	.	8.a/	Gdy-	.	f
.	.	16A\Jk	.	16A/Jk	.	16a/Jk	.	16a/Jk	.	16A\	-śmy	.	.	16A/	.	.	16a/	.	16a/	-śmy	.	.
=45	=45	=45	=45	=45	=45	=45	=45	=45	=45	=45	=45	=45	=45	=45	=45	=45	=45	=45	=45	=45	=45	=45
[2A\	2a/	2A\	.	2A/	.	2a/	.	2a/	.	2A\	iuż	.	.	2A/	.	.	2a/	.	2a/	iuż	.	.
!	!	!LO:TX:t=P:problem=mixed beam	!	!	!	!	!	!	!	!	!	!	!	!	!	!	!	!	!	!	!	!
4A\] 4AA\	8.cc#/L 8.e/	8.A\L	.	8.A/L	.	8.e/L	.	8.cc#\L	.	8.A\	wy-	.	.	8.A/	.	.	8.e/	.	8.cc#\	wy-	.	.
.	16ee/Jk 16g/	16AA/Jk	.	16A/Jk	.	16gn/Jk	.	16ee\Jk	.	16AA/	-słu-	.	.	16A/	.	.	16g/	.	16ee\	-słu-	.	.
=46	=46	=46	=46	=46	=46	=46	=46	=46	=46	=46	=46	=46	=46	=46	=46	=46	=46	=46	=46	=46	=46	=46
*	*^	*	*	*	*	*	*	*	*	*	*	*	*	*	*	*	*	*	*	*	*	*
4.A\ 4.D\	4dd/	4.f#\	4.D\	.	4.A/	.	4.f#/	.	(4dd\	.	4D\	-cha-	.	.	4A/	.	.	4f#/	.	4dd\	-cha-	.	.
.	8a/	.	.	.	.	.	.	.	8a/)	.	8D\	-li	.	.	8A/	.	.	8f#/	.	8a\	-li	.	.
8r	8r	8r	8r	.	8r	.	8r	.	8r	.	8r	.	.	.	8r	.	.	8r	.	8r	.	.	.
4r	[4ff#\ [>4dd\	4ryy	4r	.	4r	.	4dd\	.	4ff#\	.	4r	.	.	.	4r	.	.	4dd\	.	4ff#\	Mszy	.	.
*	*v	*v	*	*	*	*	*	*	*	*	*	*	*	*	*	*	*	*	*	*	*	*	*
=47	=47	=47	=47	=47	=47	=47	=47	=47	=47	=47	=47	=47	=47	=47	=47	=47	=47	=47	=47	=47	=47	=47
!!LO:PB:g=original
!	!	!	!	!	!LO:DY:rj	!	!	!	!LO:DY:rj	!	!	!	!	!	!	!	!	!	!	!	!	!
4d\ 4A\ 4F#\ 4D\	(4.ff#\] 4.dd\]	4D\	.	4f#\ 4A\ 4D\	f	(>4.dd/ 4.f#/ 4.A/	.	(4.ff#\ 4.a\ 4.d\	f	2.r	.	.	.	2.r	.	.	(4.dd\	świę-	(4.ff#\	świę-	.	.
4r	.	4r	.	4r	.	.	.	.	.	.	.	.	.	.	.	.	.	.	.	.	.	.
.	16ee\LL 16cc#\	.	.	.	.	(16cc#/LL	.	(16ee\LL	.	.	.	.	.	.	.	.	16cc#\LL	.	16ee\LL	.	.	.
.	16dd\JJ 16b\)	.	.	.	.	16b/JJ))	.	16dd\JJ))	.	.	.	.	.	.	.	.	16b\JJ)	.	16dd\JJ)	.	.	.
4r	8cc#/L 8a/	4r	.	4r	.	(8a'/L	.	(8cc#'\L	.	.	.	.	.	.	.	.	8a/	-tej	8cc#\	-tej	.	.
.	8b/J 8g/	.	.	.	.	8g'/J)	.	8b'\J)	.	.	.	.	.	.	.	.	8g/	o	8b\	o	.	.
=48	=48	=48	=48	=48	=48	=48	=48	=48	=48	=48	=48	=48	=48	=48	=48	=48	=48	=48	=48	=48	=48	=48
4r	8.a/L 8.f#/	4r	.	4r	.	(8.f#/L	.	(8.a/L	.	4r	.	.	.	4r	.	.	8.f#/L	Bo-	8.a/L	Bo-	.	.
.	16g/Jk 16e/	.	.	.	.	16e/Jk)	.	16g/Jk)	.	.	.	.	.	.	.	.	16e/Jk	.	16g/Jk	.	.	.
4r	4f#/ 4d/	4r	.	4r	.	4d/	.	4f#/	.	4r	.	.	.	4r	.	.	4d/	-że	4f#/	-że	.	.
4d\ 4D\	4r	4d\	.	4d\	.	4r	.	4r	.	4d\	Niech	.	.	4d\	.	.	4r	.	4r	.	.	.
=49	=49	=49	=49	=49	=49	=49	=49	=49	=49	=49	=49	=49	=49	=49	=49	=49	=49	=49	=49	=49	=49	=49
2F#/ 2FF#/	2.r	4.F#\	.	4.F#/	.	2.r	.	2.r	.	4.F#\	lud	.	.	4.F#/	.	.	2.r	.	2.r	.	.	.
.	.	8F#\L	.	8F#/L	.	.	.	.	.	8F#\	któ-	.	.	8F#/	.	.	.	.	.	.	.	.
8G/L 8GG/	.	8G\	.	8G/	.	.	.	.	.	8G\	-ry	.	.	8G/	.	.	.	.	.	.	.	.
8B/J 8BB/	.	8B\J	.	8B/J	.	.	.	.	.	8B\	Cię	.	.	8B\	.	.	.	.	.	.	.	.
=50	=50	=50	=50	=50	=50	=50	=50	=50	=50	=50	=50	=50	=50	=50	=50	=50	=50	=50	=50	=50	=50	=50
8.A/L 8.AA/	4r	8.A\L	.	(8.A/L	.	4r	.	4r	.	8.A\L	chwa-	.	.	(8.A/L	.	.	4r	.	4r	.	.	.
16G/Jk 16GG/	.	16G\Jk	.	16G/Jk	.	.	.	.	.	16G\Jk	.	.	.	16G/Jk)	.	.	.	.	.	.	.	.
4F#/ 4FF#/	4r	4F#\	.	4F#/)	.	4r	.	4r	.	4F#\	-li	.	.	4F#/	.	.	4r	.	4r	.	.	.
4F#/ 4FF#/	4dd/ 4a/ 4d/	4F#\	.	4d\	.	4a/	.	4dd\	.	4F#\	Twa	.	.	4d\	.	.	4a/	.	4dd\	Twa	.	.
=51	=51	=51	=51	=51	=51	=51	=51	=51	=51	=51	=51	=51	=51	=51	=51	=51	=51	=51	=51	=51	=51	=51
*	*^	*	*	*	*	*	*	*	*	*	*	*	*	*	*	*	*	*	*	*	*	*
4G\ 4GG\	4b/	2g\	4G\	.	4d\	.	4g/	.	(8.b\L	.	4G\	łas-	.	.	4d\	.	.	4g/	.	(8.b\L	ła-	.	.
.	.	.	.	.	.	.	.	.	16ee\Jk)	.	.	.	.	.	.	.	.	.	.	16ee\Jk)	.	.	.
4E/ 4EE/	4ee/	.	4E\	.	4B/	.	4g/	.	4ee\	.	4E\	-ka	.	.	4B\	.	.	4g/	.	4ee\	-ska	.	.
4A\ 4AA\	4cc#/ 4a/	4e\	4A\	.	4e\	.	4a/	.	4cc#\	.	4A\	wspo	.	.	4e\	.	.	4a/	.	4cc#\	wspo-	.	.
=52	=52	=52	=52	=52	=52	=52	=52	=52	=52	=52	=52	=52	=52	=52	=52	=52	=52	=52	=52	=52	=52	=52	=52
!!LO:LB:g=original
*^	*	*^	*	*	*	*	*	*	*	*	*	*	*	*	*	*	*	*	*	*	*	*	*
4G#X/ 4GG#X/	4ryy	8.ee/L	4b\	2e\	(4G#X\	.	[4e\	.	(4b/	.	(8.ee\L	.	4G#X\	mo-	.	.	4e\	.	.	4b/	.	(8.ee\L	-mo-	.	.
.	.	16dd/Jk	.	.	.	.	.	.	.	.	16dd\Jk)	.	.	.	.	.	.	.	.	.	.	16dd\Jk)	.	.	.
4A/ 4AA;/	4ryy	4cc#;/	4a\	.	4A;\)	.	4e;\]	.	4a;/)	.	4cc#;\	.	4A;\	-że	.	.	4e;\	.	.	4a;/	.	4cc#;\	-że	.	.
!	!	!LO:TX:i:b:t=senza organo	!	!	!	!LO:DY:a:rj	!	!	!	!	!	!LO:DY:a:rj	!	!	!	!LO:DY:a:rj	!	!	!	!	!	!	!	!	!LO:DY:rj
8.A\L	4rEE	8.a/L	4r	4ryy	8.A\L	p	8.A/L	.	8.a/L	.	8.a|/L	p	8.A\	Od-	.	p	8.A\	.	.	8.a/	.	8.a/	Od-	.	p <
!	!	!	!	!	!	!	!	!	!	!	!	!LO:HP:a	!	!	!	!	!	!	!	!	!	!	!	!	!
.	.	.	.	.	.	.	.	.	.	.	.	<	.	.	.	.	.	.	.	.	.	.	.	.	.
16A\Jk	.	16a/Jk	.	.	16A\Jk	.	16A/Jk	.	16a/Jk	.	16a|/Jk	.	16A\	-puść	.	.	16A\	.	.	16a/	.	16a/	-puść	.	.
*	*	*	*v	*v	*	*	*	*	*	*	*	*	*	*	*	*	*	*	*	*	*	*	*	*	*
=53	=53	=53	=53	=53	=53	=53	=53	=53	=53	=53	=53	=53	=53	=53	=53	=53	=53	=53	=53	=53	=53	=53	=53	=53
!	!	!	!	!	!	!	!	!	!LO:HP:a	!	!LO:HP:a	!	!	!	!	!	!	!	!	!	!	!	!	!LO:DY:a
4.B-X\	2.rGG	4.b-X/	2.r	(4.B-X\	.	(4.B-X/	.	(<4.b-X\yy	>	(<4.b-X\	[ >	(4.B-X\	nam	.	.	(4.B-X\	.	.	(4.b-X/	.	(4.b-X/	nam	.	[[
.	.	.	.	.	.	.	.	.	.	.	.	.	.	.	.	.	.	.	.	.	.	.	.	>
.	.	.	.	.	.	.	.	.	.	.	.	.	.	.	.	.	.	.	.	.	.	.	.	.
8A\	.	8a/	.	8A\)	.	8A/)	.	8a/)yy	.	8a/)	.	8A\)	.	.	.	8A\)	.	.	8a/)	.	8a/)	.	.	.
8.E\L	.	8.e/L	.	8.E\L	.	8.E/L	.	8.e/Lyy	]	8.e/L	]	8.E\	na-	.	.	8.E/	.	.	8.e/	.	8.e/	na-	.	]
16Fn\Jk	.	16fn/Jk	.	16Fn\Jk	.	16Fn/Jk	.	16fn/Jkyy	.	16fn/Jk	.	16Fn\	-sze	.	.	16Fn/	.	.	16fn/	.	16fn/	-sze	.	.
=54	=54	=54	=54	=54	=54	=54	=54	=54	=54	=54	=54	=54	=54	=54	=54	=54	=54	=54	=54	=54	=54	=54	=54	=54
4C#X/	4r	4ree	(4c#X/	(4C#X/	.	(4C#X/	.	(4c#X/yy	.	(4c#X/	.	4C#X/	wi-	.	.	4C#X/	.	.	4c#X/	.	4c#X/	wi-	.	.
4D/	4r	4ree	4d/)	4D/)	.	4D/)	.	4d/)yy	.	4d/)	.	4D/	-ny	.	.	4D/	.	.	4d/	.	4d/	-ny	.	.
!	!	!LO:TX:i:b:t=Organo	!	!	!	!	!	!	!	!	!	!	!	!	!	!	!	!	!	!	!	!	!	!
4Fn/ 4BB-X/	4ryy	8d/L	4ryy	4BB-X/	.	4Fn/	.	(8d/Lyy	.	(8d/L	.	4BB-X/	Gdy	.	.	4Fn/	.	.	4d/	.	(8d/L	Gdy	.	.
.	.	8e/J	.	.	.	.	.	8e/J)yy	pyy	8e/J)	p	.	.	.	.	.	.	.	.	.	8e/J)	.	.	.
=55	=55	=55	=55	=55	=55	=55	=55	=55	=55	=55	=55	=55	=55	=55	=55	=55	=55	=55	=55	=55	=55	=55	=55	=55
2Fn/	2.BB-X\	4.fn/	[2d\	[2BB-X/	.	(2Fn/	.	[2d/	.	(4.fn/	.	2BB-X/	sta-	.	.	2Fn/	.	.	2d/	.	(4.fn/	sta-	.	.
.	.	16g/LL	.	.	.	.	.	.	.	16g/LL	.	.	.	.	.	.	.	.	.	.	16g/LL	.	.	.
.	.	16f/JJ	.	.	.	.	.	.	.	16f/JJ	.	.	.	.	.	.	.	.	.	.	16f/JJ)	.	.	.
8G/L	.	8e/L	8d\L]	8BB-/L]	.	8G/L)	.	8d/L]	.	8e/L)	.	8BB-/	-niem	.	.	8G/	.	.	8d/	.	8e/	-niem	.	.
8G#X/J	.	8d/J	8d\J	8BB-'/J	.	8G#X'/J	.	8d'/J	.	8d'/J	.	8BB-/	przed	.	.	8G#X/	.	.	8d/	.	8d/	przed	.	.
*v	*v	*	*	*	*	*	*	*	*	*	*	*	*	*	*	*	*	*	*	*	*	*	*	*
=56	=56	=56	=56	=56	=56	=56	=56	=56	=56	=56	=56	=56	=56	=56	=56	=56	=56	=56	=56	=56	=56	=56	=56
*	*	*	*	*	*	*	*	*	*	*	*	*	*	*	*	*	*	*^	*	*	*	*	*
4.A\ 4.AA\	4.a/	4e\ 4d\	4.AA/	.	4.A/	.	(4e/ (4d/	.	4.a/	.	4AA/	To-	.	.	4A\	.	.	4e/	4d\	.	4a/	To-	.	.
.	.	8e\ 8c#\	.	.	.	.	8e/ 8c#/))	.	.	.	8AA/	-bą	.	.	8A\	.	.	8e/	8c#\	.	8a/	-bą	.	.
8r	8r	8r	8r	.	8r	.	8r	.	8r	.	8r	.	.	.	8r	.	.	8r	8ryy	.	8r	.	.	.
!	!	!	!LO:TX:t=P:problem=mixed beam	!	!	!	!	!	!	!	!	!	!	!	!	!	!	!	!	!	!	!	!	!LO:DY:a
4A\ 4AA\	8.cc#/L 8.e/	4ryy	8.A\L	.	8.A/L	.	8.e/L	.	8.cc#\L	<	8.A\	Bo-	.	.	8.A\	.	.	8.e/	4ryy	.	8.cc#\	Bo-	.	<
.	16ee/Jk 16g/	.	16AA/Jk	.	16A/Jk	.	16g/Jk	.	16ee\Jk	[[	16AA/	-ze	.	.	16A\	.	.	16g/	.	.	16ee\	-że.	.	[[
*	*	*	*	*	*	*	*	*	*	*	*	*	*	*	*	*	*	*v	*v	*	*	*	*	*
=57	=57	=57	=57	=57	=57	=57	=57	=57	=57	=57	=57	=57	=57	=57	=57	=57	=57	=57	=57	=57	=57	=57	=57
!!LO:PB:g=original
4.A\ 4.D\	4dd/	4.f#\	4.D\	.	4.A/	.	4.f#/	.	(4dd\	>	4D\	w Trój-	.	.	4A\	.	.	4f#/	.	(4dd\	w Trój-	.	>
.	8a/	.	.	.	.	.	.	.	8a/)	]	8D\	-cy	.	.	8A\	.	.	8f#/	.	8a/)	-cy	.	]
8r	8rdd	8rd	8r	.	8r	.	8rd	.	8r	.	8r	.	.	.	8r	.	.	8rd	.	8r	.	.	.
!	!	!	!LO:TX:t=P:problem=mixed beam	!	!	!	!	!	!	!	!LO:N:vis=4.	!	!	!	!LO:N:vis=4.	!	!	!	!	!	!	!	!LO:DY:a
4A/ 4AA/	8.cc#/L 8.e/	8.ryy	8.A\L	.	8.A/L	.	8.e/L	.	8.cc#\L	<	4AA/	je-	.	.	4A\	.	.	(8.e/L	.	(8.cc#\L	je-	.	<
.	16ee/Jk 16g/	16ryy	16AA/Jk	.	16A/Jk	.	16g/Jk	.	16ee\Jk	[[	.	.	.	.	.	.	.	16g/Jk)	.	16ee\Jk)	.	.	[[
=58	=58	=58	=58	=58	=58	=58	=58	=58	=58	=58	=58	=58	=58	=58	=58	=58	=58	=58	=58	=58	=58	=58	=58
4.A\ 4.D\	4dd/	4.f#\	4.D\	.	4.A/	.	4.f#/	.	(4dd\	>	4D\	-dy-	.	.	4A\	.	.	4f#/	.	4dd\	-dy-	.	>
.	8a/	.	.	.	.	.	.	.	8a/)	]	8D\	-ny	.	.	8A\	.	.	8f#/	.	8a/	-ny	.	]
8r	8r	8ryy	8r	.	8r	.	8rf	.	8r	.	8r	.	.	.	8r	.	.	8rf	.	8r	.	.	.
!	!	!	!	!	!	!	!	!	!	!	!	!	!	!LO:DY:a:rj	!	!	!	!	!	!	!	!	!LO:DY:a:rj
8.A\L 8.F#\	8.a/L 8.f#/	8.ryy	8.F#\L	.	8.A/L	.	8.f#/L	.	8.a|/L	.	8.F#\	Daj	.	f	8.A\	.	.	8.f#/	.	8.a/	Daj	.	f
16d\Jk 16A\	16dd/Jk 16a/	16ryy	16A\Jk	.	16f#/Jk	.	16a/Jk	.	16dd/|Jk	.	16A\	nam	.	.	16d\	.	.	16a/	.	16dd\	nam	.	.
*	*v	*v	*	*	*	*	*	*	*	*	*	*	*	*	*	*	*	*	*	*	*	*	*
=59	=59	=59	=59	=59	=59	=59	=59	=59	=59	=59	=59	=59	=59	=59	=59	=59	=59	=59	=59	=59	=59	=59
!	!	!	!	!	!LO:DY:rj	!	!	!	!LO:DY:rj	!	!	!	!	!	!	!	!	!	!	!	!	!
4.f#\ 4.d\	4.ff#\ 4.dd\	(4.d\ 4.D\	.	(4.f#/ 4.A/ 4.D/	f	(>4.dd/ 4.f#/ 4.A/	.	(4.ff#\ 4.a\ 4.d\	f	(4.d\	mie-	.	.	(4.f#\	.	.	(4.dd\	.	(4.ff#\	mie-	.	.
16e\LL 16c#\	16ee\LL 16cc#\	16c#\LL	.	16e\LL	.	16cc#/LL	.	16ee\LL	.	16c#\LL	.	.	.	16e\LL	.	.	16cc#\LL	.	16ee\LL	.	.	.
16d\JJ 16B\	16dd\JJ 16b\	16B\JJ)	.	16d\JJ)	.	16b/JJ)	.	16dd\JJ)	.	16B\JJ	.	.	.	16d\JJ	.	.	16b\JJ	.	16dd\JJ	.	.	.
8c#\L 8A\	8cc#/L 8a/	(8A'\L	.	(8c#'\L	.	(8a'/L	.	8cc#'\L	.	8A\)	.	.	.	8c#\)	.	.	8a/)	.	8cc#\)	.	.	.
8B\J 8G\	8b/J 8g/	8G'\J)	.	8B'\J)	.	8g'/J)	.	8b'\J	.	8G\	-szkać	.	.	8B\	.	.	8g/	.	8b\	-szkać	.	.
=60	=60	=60	=60	=60	=60	=60	=60	=60	=60	=60	=60	=60	=60	=60	=60	=60	=60	=60	=60	=60	=60	=60
*^	*	*	*	*	*	*	*	*	*	*	*	*	*	*	*	*	*	*	*	*	*	*
8.A\L 8.F#\	4ryy	8.a/L 8.f#/	8.F#\L	.	8.A/L	.	8.f#/L	.	8.a/L	.	8.F#\L	z So-	.	.	8.A/L	.	.	8.f#/L	.	8.a/L	z So-	.	.
16G\Jk 16E\	.	16g/Jk 16e/	16E\Jk	.	16G/Jk	.	16e/Jk	.	16g/Jk	.	16E\Jk	.	.	.	16G/Jk	.	.	16e/Jk	.	16g/Jk	.	.	.
4F#/	4D\	4f#/ 4d/	4D\	.	4F#/	.	4d/	.	4f#/	.	4D\	-bą	.	.	4F#/	.	.	4d/	.	4f#/	-bą	.	.
4B\ 4BB\	4ryy	4dd/ 4f#/ 4d/	4BB/	.	4d\	.	4f#/	.	4dd\	.	4B\ 4BB\	o	.	.	4d\	.	.	4f#/	.	4dd\	o	.	.
*v	*v	*	*	*	*	*	*	*	*	*	*	*	*	*	*	*	*	*	*	*	*	*	*
=61	=61	=61	=61	=61	=61	=61	=61	=61	=61	=61	=61	=61	=61	=61	=61	=61	=61	=61	=61	=61	=61	=61
*	*^	*	*	*	*	*	*	*	*	*	*	*	*	*	*	*	*	*	*	*	*	*
4G/ 4GG/	8.b/L	4g\	8.AA/L	.	8.e\L	.	8.g/L	.	8.b\L	.	8.G\	Bo-	.	.	8.e\	.	.	8.g/	.	8.b\	Bo-	.	.
.	16ee/Jk	.	16E/Jk	.	16B\Jk	.	16g/Jk	.	16ee\Jk	.	16E\	-że	.	.	16B\	.	.	16g/	.	16ee\	-że	.	.
2A\ 2AA\	4dd/ 4f#/	2a\	4A\	.	4A/	.	4f#/	.	4dd\	.	4A\	daj	.	.	4A\	.	.	4f#/	.	4dd\	daj	.	.
.	4cc#/ 4e/	.	4AA/	.	4e\	.	4g/	.	4cc#\	.	4AA/	nam	.	.	4e\	.	.	4g/	.	4cc#\	nam	.	.
*	*v	*v	*	*	*	*	*	*	*	*	*	*	*	*	*	*	*	*	*	*	*	*	*
=62	=62	=62	=62	=62	=62	=62	=62	=62	=62	=62	=62	=62	=62	=62	=62	=62	=62	=62	=62	=62	=62	=62
!!LO:LB:g=original
*^	*	*	*	*	*	*	*	*	*	*	*	*	*	*	*	*	*	*	*	*	*	*
4d\ 4D\	4ryy	4dd/ 4f#/	4D\	.	4d\	.	4f#/	.	4dd\	.	4D\	daj,	.	.	4d\	.	.	4f#/	.	4dd\	daj	.	.
4rA	4rGG	4r	4r	.	4r	.	4r	.	4r	.	4r	.	.	.	4r	.	.	4r	.	4r	.	.	.
!	!	!	!	!LO:DY:a:rj	!	!	!	!	!	!	!	!	!	!LO:DY:a:rj	!	!	!	!	!	!	!	!	!
8.A/L	4rGG	4r	8.A\L	p	4r	.	4r	.	4r	.	8.A\	Od-	.	p	4r	.	.	4r	.	4r	.	.	.
16B-X/Jk	.	.	16B-X\Jk	.	.	.	.	.	.	.	16B-X\	-puść	.	.	.	.	.	.	.	.	.	.	.
=63	=63	=63	=63	=63	=63	=63	=63	=63	=63	=63	=63	=63	=63	=63	=63	=63	=63	=63	=63	=63	=63	=63	=63
*	*	*^	*	*	*	*	*	*	*	*	*	*	*	*	*	*	*	*	*	*	*	*	*
[2A/	2.rGG	2.raa	4rg	[2A\	.	4r	.	2.r	.	2.r	.	2A\	nam	.	.	4r	.	.	2.r	.	2.r	.	.	.
.	.	.	4rg	.	.	4r	.	.	.	.	.	.	.	.	.	4r	.	.	.	.	.	.	.	.
!	!	!	!	!	!	!	!LO:DY:a:rj	!	!	!	!	!	!	!	!	!	!	!LO:DY:a:rj	!	!	!	!	!	!
8.A/L]	.	.	8.c#/L	8.A\L]	.	8.c#\L	p	.	.	.	.	8.A\	Od-	.	.	8.c#\	Od-	p	.	.	.	.	.	.
.	.	.	.	.	.	.	.	.	.	.	.	.	.	.	.	.	.	.	.	.	.	.	.	.
16B-X/Jk	.	.	16d/Jk	16B-X\J	.	16d\Jk	.	.	.	.	.	16B-X\	-puść	.	.	16d\	-puść	.	.	.	.	.	.	.
=64	=64	=64	=64	=64	=64	=64	=64	=64	=64	=64	=64	=64	=64	=64	=64	=64	=64	=64	=64	=64	=64	=64	=64	=64
[2A/	2.rGG	2c#/	2ryy	[2A\	.	2c#\	.	4r	.	2.r	.	2A\	nam	.	.	2c#\	nam	.	4r	.	2.r	.	.	.
.	.	.	.	.	.	.	.	4r	.	.	.	.	.	.	.	.	.	.	4r	.	.	.	.	.
!	!	!	!	!	!	!	!	!	!LO:DY:rj	!	!	!	!	!	!	!	!	!	!	!	!	!	!	!
8.A\L]	.	8.e/L	8.c#\L	8.A\L]	.	8.c#\L	.	8.e/L	p	.	.	8.A\	Od-	.	.	8.c#\	.	.	8.e/	Od-	.	.	.	.
16G#X\Jk	.	16fn/Jk	16d\Jk	16G#X\Jk	.	16d\Jk	.	16fn/Jk	.	.	.	16G#X\	-puść	.	.	16d\	.	.	16fn/	-puśc	.	.	.	.
=65	=65	=65	=65	=65	=65	=65	=65	=65	=65	=65	=65	=65	=65	=65	=65	=65	=65	=65	=65	=65	=65	=65	=65	=65
2A/	4rGG	4ree	2e/ 2c#/	2A\	.	2c#\	.	2e/	.	4r	.	2A\	nam	.	.	2c#\	.	.	2e/	nam	4r	.	.	.
.	4rGG	4ree	.	.	.	.	.	.	.	4r	.	.	.	.	.	.	.	.	.	.	4r	.	.	.
!	!	!	!	!	!	!	!	!	!	!	!LO:DY:rj	!	!	!	!	!	!	!	!	!	!	!	!	!LO:DY:a:rj
8.e\L 8.A\	4ryy	8.cc#/L 8.e/	4ryy	8.A\L	.	8.e\L	.	8.g/L	.	8.cc#\L	p	8.A\	Od-	.	.	8.e\	.	.	8.g/	.	8.cc#\	Od-	.	p
16c#\Jk 16B-X\	.	16ee/Jk 16g/	.	16B-X\Jk	.	16c#\Jk	.	16e/Jk	.	16ee\Jk	.	16B-X\	-puść	.	.	16c#\	.	.	16e/	.	16ee\	-puść	.	.
*v	*v	*	*	*	*	*	*	*	*	*	*	*	*	*	*	*	*	*	*	*	*	*	*	*
*	*v	*v	*	*	*	*	*	*	*	*	*	*	*	*	*	*	*	*	*	*	*	*	*
=66	=66	=66	=66	=66	=66	=66	=66	=66	=66	=66	=66	=66	=66	=66	=66	=66	=66	=66	=66	=66	=66	=66
2c#\ 2A\	2g/ 2e/	2A\	.	2c#\	.	2e/	.	2g#X/	.	2A\	nam	.	.	2c#\	.	.	2e/	.	2g/	nam	.	.
!	!	!	!LO:HP:a	!	!	!	!	!	!LO:HP:a	!	!	!	!	!	!	!	!	!	!	!	!	!
8.A\L 8.D\	8.a/L 8.f#/	8.D\L	<	8.A/L	.	8.f#/L	.	8.a/L	<	8.D\	w Trój-	.	.	8.A\	.	.	8.f#/	.	8.a/	w Trój-	.	.
16d\Jk 16F#\	16dd/Jk 16a/	16F#\Jk	[[	16d/Jk	.	16a/Jk	.	16dd/Jk	[[	16F#\	-cy	.	.	16d\	.	.	16a/	.	16dd\	-cy	.	.
=67	=67	=67	=67	=67	=67	=67	=67	=67	=67	=67	=67	=67	=67	=67	=67	=67	=67	=67	=67	=67	=67	=67
!!LO:PB:g=original
!	!	!	!LO:DY:a:rj	!	!	!	!	!	!LO:DY:a:rj	!	!	!	!LO:DY:a:rj	!	!	!	!	!	!	!	!	!LO:DY:a:rj
4.f#\ 4.d\	(4.ff#\ 4.dd\	(4.d\ 4.D\	f	(4.f#\	.	(>4.dd/ 4.f#/ 4.A/	.	(4.ff#\ 4.a\ 4.d\	f	(4.d\	Bo-	.	f	(4.f#\	.	.	(4.dd\	.	(4.ff#\	Bo-	.	f
16e\LL 16A#X\	16ee\LL 16cc#\	16A#X\LL	.	16e\LL	.	16cc#/LL	.	16ee\LL	.	16A#X\LL	.	.	.	16e\LL	.	.	16cc#\LL	.	16ee\LL	.	.	.
16d\JJ 16B\	16dd\JJ 16b\)	16B\JJ)	.	16d\JJ)	.	16b/JJ)	.	16dd\JJ)	.	16B\JJ)	.	.	.	16d\JJ)	.	.	16b\JJ)	.	16dd\JJ)	.	.	.
8c#\L 8A#\ 8F#\	8cc#/L 8a/	(8F#'\L	.	(8c#'/L	.	(8a'/L	.	(8cc#'\L	.	8F#\	-że	.	.	8c#\	.	.	8a/	.	8cc#\	-że	.	.
8B\J 8G\	8b/J 8g/	8G'\J)	.	8B'/J)	.	8g'/J)	.	8b'\J)	.	8G\	ie-	.	.	8B\	.	.	8g/	.	8b\	ie-	.	.
=68	=68	=68	=68	=68	=68	=68	=68	=68	=68	=68	=68	=68	=68	=68	=68	=68	=68	=68	=68	=68	=68	=68
*	*^	*	*	*	*	*	*	*	*	*	*	*	*	*	*	*	*	*	*	*	*	*
4A\ 4C#\	8.a/L	4e\	4C#/	.	4A/	.	(4e/	.	8.a/L	.	4C#/	-dy-	.	.	4A\	.	.	4e/	.	8.a/L	-dy-	.	.
.	16g/Jk	.	.	.	.	.	.	.	16g/Jk	.	.	.	.	.	.	.	.	.	.	16g/Jk	.	.	.
8A\ 8D\	8f#/	8d\	8D/	.	8A/	.	8d/)	.	8f#/	.	8D/	-ny	.	.	8A\	.	.	8d/	.	8f#/	-ny	.	.
8r	8r	8ryy	8rBB	.	8r	.	8r	.	8r	.	8r	.	.	.	8r	.	.	8rd	.	8r	.	.	.
8.G\L	8.b/L	4g\	8.G\L	.	8.e\L	.	8.g/L	.	8.b\L	.	8.G\	Daj	.	.	8.e\	.	.	8.g/	.	8.b\	Daj	.	.
16B\Jk 16E\	16ee/Jk	.	16E\Jk	.	16B\Jk	.	16g/Jk	.	16ee\Jk	.	16E\	nam	.	.	16B\	.	.	16g/	.	16ee\	nam	.	.
=69	=69	=69	=69	=69	=69	=69	=69	=69	=69	=69	=69	=69	=69	=69	=69	=69	=69	=69	=69	=69	=69	=69	=69
*^	*	*	*	*	*	*	*	*	*	*	*	*	*	*	*	*	*	*	*	*	*	*	*
2d/	2A\	8.dd/L	4f#\	8.A\L	.	8.A/|>L	.	8.f#/|L	.	8.dd|\L	.	8.A\	mie-	.	.	8.A\	.	.	8.f#/	.	8.dd\	mie-	.	.
.	.	16a/Jk	.	16A\Jk	.	16d/|>Jk	.	16f#/|Jk	.	16a\|Jk	.	16A\	-szkać	.	.	16d\	.	.	16f#/	.	16a/	-szkać	.	.
.	.	4ff#\ 4a\	4ryy	(4A\	.	(4d\	.	(4a/	.	(4ff#\	.	(4A\	z So-	.	.	(4d\	.	.	(4a/	.	(4ff#\	z So-	.	.
4c#/	4A\	4ee\ 4g\	4ryy	4AA/)	.	4c#\)	.	4g/)	.	4ee\)	.	4AA/)	.	.	.	4c#\)	.	.	4g/)	.	4ee\)	.	.	.
*v	*v	*	*	*	*	*	*	*	*	*	*	*	*	*	*	*	*	*	*	*	*	*	*	*
=70	=70	=70	=70	=70	=70	=70	=70	=70	=70	=70	=70	=70	=70	=70	=70	=70	=70	=70	=70	=70	=70	=70	=70
4d\ 4D\	4dd/ 4f#/	4ryy	4D\	.	4d\	.	4f#/	.	4dd\	.	4D\	-bą	.	.	4d\	.	.	4f#/	.	4dd\	-bą	.	.
4r	4r	4ryy	4r	.	4r	.	4r	.	4r	.	4r	.	.	.	4r	.	.	4r	.	4r	.	.	.
8.B\L 8.BB\	8.g/L	4d\	8.B\L	.	8.d\L	.	8.g/L	.	8.g/L	.	8.B\	Daj	.	.	8.d\	.	.	8.g/	.	8.g/	Daj	.	.
16G\Jk 16GG\	16b/Jk 16g/	.	16G\Jk	.	16d\Jk	.	16g/Jk	.	16b/Jk	.	16G\	nam	.	.	16d\	.	.	16g/	.	16b/	nam	.	.
=71	=71	=71	=71	=71	=71	=71	=71	=71	=71	=71	=71	=71	=71	=71	=71	=71	=71	=71	=71	=71	=71	=71	=71
2A\ 2D\	2dd/ 2f#/ 2d/	2ryy	2D\	.	2d\	.	2f#/	.	2dd\	.	2D\	daj	.	.	2d\	.	.	2f#/	.	2dd\	daj	.	.
8.G\L 8.GG\	8.b/L 8.g/	4d\	8.G\L	.	8.d\L	.	8.g/L	.	8.b/L	.	8.G\	Bo-	.	.	8.d\	.	.	8.g/	.	8.b/	Bo-	.	.
16B\Jk 16BB\	16g/Jk	.	16B\Jk	.	16d\Jk	.	16g/Jk	.	16g/Jk	.	16B\	-że	.	.	16d\	.	.	16g/	.	16g/	-że	.	.
*	*v	*v	*	*	*	*	*	*	*	*	*	*	*	*	*	*	*	*	*	*	*	*	*
=72	=72	=72	=72	=72	=72	=72	=72	=72	=72	=72	=72	=72	=72	=72	=72	=72	=72	=72	=72	=72	=72	=72
!!LO:LB:g=original
2.A\ 2.D\	2.a/ 2.f#/ 2.d/	[2D\	.	[2d\	.	[2f#/	.	[>2a^/	.	2.D\	daj.	.	.	2.d\	.	.	2.f#/	.	2.a/	daj.	.	.
.	.	8D\L]	.	8d\L]	.	8f#/L]	.	8a\L]	.	.	.	.	.	.	.	.	.	.	.	.	.	.
!	!	!LO:TUP:a	!	!	!	!	!	!LO:TUP:a	!	!	!	!	!	!	!	!	!	!	!	!	!	!
*	*	*	*	*Xtuplet	*	*	*	*	*	*	*	*	*	*	*	*	*	*	*	*	*	*
.	.	(24d\L	.	(24dd\L	.	(<24f#/L	.	(24a\L	.	.	.	.	.	.	.	.	.	.	.	.	.	.
.	.	24A\	.	24a\	.	24a/	.	24dd\	.	.	.	.	.	.	.	.	.	.	.	.	.	.
.	.	24F#\JJ)	.	24f#\JJ)	.	24dd/JJ	.	24ff#\JJ	.	.	.	.	.	.	.	.	.	.	.	.	.	.
=73	=73	=73	=73	=73	=73	=73	=73	=73	=73	=73	=73	=73	=73	=73	=73	=73	=73	=73	=73	=73	=73	=73
*	*^	*	*	*	*	*	*	*	*	*	*	*	*	*	*	*	*	*	*	*	*	*
*	*	*	*tremolo	*	*tremolo	*	*tremolo	*	*tremolo	*	*	*	*	*	*	*	*	*	*	*	*	*	*
!	!	!	!	!LO:DY:rj	!	!	!	!	!	!LO:DY:rj	!	!	!	!	!	!	!	!	!	!	!	!	!
2d\ 2A\ 2F#\	2aa/ 2dd/	2a\	8F#\L	f	8f#\L	.	8dd\L)	.	8aa\L 8a\)	f	2.ryy	.	.	.	2.ryy	.	.	2.ryy	.	2.ryy	.	.	.
.	.	.	8F#\	.	8f#\	.	8dd\	.	8aa\ 8a\	.	.	.	.	.	.	.	.	.	.	.	.	.	.
.	.	.	8F#\	.	8f#\	.	8dd\	.	8aa\ 8a\	.	.	.	.	.	.	.	.	.	.	.	.	.	.
.	.	.	8F#\J	.	8f#\J	.	8dd\J	.	8aa\J 8a\	.	.	.	.	.	.	.	.	.	.	.	.	.	.
8B\L 8G\ 8E\	8gg\L 8ee\ 8b\	4ryy	8E\L	.	8e\L	.	8ee\L	.	8gg\L 8b\	.	.	.	.	.	.	.	.	.	.	.	.	.	.
8A\J 8E\ 8AA\	8ee\J 8cc#\ 8a\	.	8A\J	.	8a\J	.	8cc#\J	.	8ee\J 8a\	.	.	.	.	.	.	.	.	.	.	.	.	.	.
*	*	*	*	*	*	*	*	*	*Xtremolo	*	*	*	*	*	*	*	*	*	*	*	*	*	*
=74	=74	=74	=74	=74	=74	=74	=74	=74	=74	=74	=74	=74	=74	=74	=74	=74	=74	=74	=74	=74	=74	=74	=74
4.A\ 4.F#\ 4.D\	4.ff#/	4.dd\ 4.a\	8D\L	.	8a\L 8d\	.	8dd\L	.	8ff#\L 8a\	.	2.ryy	.	.	.	2.ryy	.	.	2.ryy	.	2.ryy	.	.	.
.	.	.	8D\	.	8a\ 8d\	.	8dd\	.	8ff#\ 8a\	.	.	.	.	.	.	.	.	.	.	.	.	.	.
.	.	.	8D\	.	8a\ 8d\	.	8dd\	.	8ff#\ 8a\	.	.	.	.	.	.	.	.	.	.	.	.	.	.
8A#X\L 8AA#X\	8ff#/L	8cc#\L 8f#\	8A#X\	.	8f#\	.	8cc#\	.	8ff#\ 8cc#\	.	.	.	.	.	.	.	.	.	.	.	.	.	.
8B\ 8BB\	8ff#/	8dd\ 8b\ 8f#\	8B\	.	8f#\	.	8b\	.	8ff#\ 8dd\	.	.	.	.	.	.	.	.	.	.	.	.	.	.
8An\J 8AAn\	8ff#/J	8cc#\J 8f#\	8An\J	.	8f#\J	.	8cc#\J	.	8ff#\J 8cc#\	.	.	.	.	.	.	.	.	.	.	.	.	.	.
=75	=75	=75	=75	=75	=75	=75	=75	=75	=75	=75	=75	=75	=75	=75	=75	=75	=75	=75	=75	=75	=75	=75	=75
*	*	*	*	*	*	*	*	*	*tremolo	*	*	*	*	*	*	*	*	*	*	*	*	*	*
2G/ 2GG/	2b\ 2f#\	4ff#/	8G\L	.	8g\L	.	8b\L	.	8ff#\L	.	2.ryy	.	.	.	2.ryy	.	.	2.ryy	.	2.ryy	.	.	.
.	.	.	8G\	.	8g\	.	8b\	.	8ff#\J	.	.	.	.	.	.	.	.	.	.	.	.	.	.
.	.	4ee/	8G\	.	8g\	.	8b\	.	8ee\L	.	.	.	.	.	.	.	.	.	.	.	.	.	.
.	.	.	8G\J	.	8g\J	.	8b\J	.	8ee\J	.	.	.	.	.	.	.	.	.	.	.	.	.	.
4G#X/ 4GG#X/	4ffn/ 4dd/	4bb/	8G#X\L	.	8fn\L	.	8dd\L	.	8bb\L	.	.	.	.	.	.	.	.	.	.	.	.	.	.
.	.	.	8G#\J	.	8f\J	.	8dd\J	.	8bb\J	.	.	.	.	.	.	.	.	.	.	.	.	.	.
=76	=76	=76	=76	=76	=76	=76	=76	=76	=76	=76	=76	=76	=76	=76	=76	=76	=76	=76	=76	=76	=76	=76	=76
2.A/ 2.F#/ 2.D/ 2.AA/	8aa/L	4ff#\	(8A\L	.	(8f#X\L	.	(8dd\L	.	(8aa\L	.	2.ryy	.	.	.	2.ryy	.	.	2.ryy	.	2.ryy	.	.	.
.	8ddd/J	.	8F#\J)	.	8a\J)	.	8ff#\J)	.	8ddd\)	.	.	.	.	.	.	.	.	.	.	.	.	.	.
.	8ff#/L	4dd\	(8D/L	.	(8d\L	.	(8a/L	.	(8ff#\	.	.	.	.	.	.	.	.	.	.	.	.	.	.
.	8aa/J	.	8AA/J)	.	8f#\J)	.	8dd/J)	.	8aa\)	.	.	.	.	.	.	.	.	.	.	.	.	.	.
!	!	!	!LO:TX:t=P:problem=mixed beam	!	!	!	!	!	!	!	!	!	!	!	!	!	!	!	!	!	!	!	!
.	8a\L	8ryy	(8A\L	.	(8d\L	.	(8f#/L	.	(8a\	.	.	.	.	.	.	.	.	.	.	.	.	.	.
.	8dd\J	8ryy	8AA/J)	.	8f#\J)	.	8a/J)	.	8dd\J)	.	.	.	.	.	.	.	.	.	.	.	.	.	.
=77	=77	=77	=77	=77	=77	=77	=77	=77	=77	=77	=77	=77	=77	=77	=77	=77	=77	=77	=77	=77	=77	=77	=77
!!LO:PB:g=original
2.A\ 2.E\ 2.AA\	(4dd/	2.a\ 2.e\	2A\	.	2.e\	.	2.a/	.	(4dd\	.	2.ryy	.	.	.	2.ryy	.	.	2.ryy	.	2.ryy	.	.	.
.	8cc#/L	.	.	.	.	.	.	.	8cc#\L	.	.	.	.	.	.	.	.	.	.	.	.	.	.
.	8b/J	.	.	.	.	.	.	.	8b\J	.	.	.	.	.	.	.	.	.	.	.	.	.	.
.	4cc#/)	.	4AA/	.	.	.	.	.	4cc#\)	.	.	.	.	.	.	.	.	.	.	.	.	.	.
*	*v	*v	*	*	*	*	*	*	*	*	*	*	*	*	*	*	*	*	*	*	*	*	*
=78	=78	=78	=78	=78	=78	=78	=78	=78	=78	=78	=78	=78	=78	=78	=78	=78	=78	=78	=78	=78	=78	=78
8rBB	2.ee/ 2.a/ 2.g/	8r	.	8r	.	2.a/ 2.g/	.	2.ee\	.	2.ryy	.	.	.	2.ryy	.	.	2.ryy	.	2.ryy	.	.	.
(8AA/L	.	(<8AA/L	.	(8A/L	.	.	.	.	.	.	.	.	.	.	.	.	.	.	.	.	.	.
8AA#X/	.	8AA#X/	.	8A#X/	.	.	.	.	.	.	.	.	.	.	.	.	.	.	.	.	.	.
8BB/	.	8BB/	.	8B/	.	.	.	.	.	.	.	.	.	.	.	.	.	.	.	.	.	.
8Cn/	.	8Cn/	.	8cn/	.	.	.	.	.	.	.	.	.	.	.	.	.	.	.	.	.	.
8C#X/J)	.	8C#X/J	.	8c#X/J	.	.	.	.	.	.	.	.	.	.	.	.	.	.	.	.	.	.
=79	=79	=79	=79	=79	=79	=79	=79	=79	=79	=79	=79	=79	=79	=79	=79	=79	=79	=79	=79	=79	=79	=79
!	!	!	!	!LO:TX:t=P:problem=mixed beam	!	!	!	!	!	!	!	!	!	!	!	!	!	!	!	!	!	!
8D\L	2.dd/ 2.a/ 2.f#/	(8D\L)	.	(8d\L)	.	(8a/L 8f#/	.	(8dd\L	.	2.ryy	.	.	.	2.ryy	.	.	2.ryy	.	2.ryy	.	.	.
8F#\J	.	8F#\	.	8f#\	.	8d/	.	8a\	.	.	.	.	.	.	.	.	.	.	.	.	.	.
8AA/L	.	8A\	.	8A/	.	8dd/	.	8ff#\	.	.	.	.	.	.	.	.	.	.	.	.	.	.
8D/J	.	8d\	.	8f#/	.	8f#/J)	.	8dd\	.	.	.	.	.	.	.	.	.	.	.	.	.	.
8FF#/L	.	8F#\	.	8F#/	.	4d/	.	8a\	.	.	.	.	.	.	.	.	.	.	.	.	.	.
8AA/J	.	8A\J)	.	8A/J)	.	.	.	8f#\J)	.	.	.	.	.	.	.	.	.	.	.	.	.	.
=80	=80	=80	=80	=80	=80	=80	=80	=80	=80	=80	=80	=80	=80	=80	=80	=80	=80	=80	=80	=80	=80	=80
2.D/ 2.DD;/	2.dd/ 2.a/ 2.f#;/	2.D;\	.	2.F#;/	.	2.d;/	.	2.d;/	.	2.ryy	.	.	.	2.ryy	.	.	2.ryy	.	2.ryy	.	.	.
==	==	==	==	==	==	==	==	==	==	==	==	==	==	==	==	==	==	==	==	==	==	==
*-	*-	*-	*-	*-	*-	*-	*-	*-	*-	*-	*-	*-	*-	*-	*-	*-	*-	*-	*-	*-	*-	*-
!!!RDF**kern: > = above
!!!RDF**kern: < = below
!!!RDF**kern: | = vertical stroke
!!!EED: Andrzej Borzym
!!!EEV: 2021-04-29
!!!ENC: Krzysztof Stępień
!!!END: 2021-04-10
